ignazio-bovo/msc_thesis/data/processed/df_final.csv
timestamp,ofi,bid_size,ask_size,buy_qty,sell_qty,target_q,target_shift_q
2021-02-05 10:15:50+01:00,0.23440789204442286,-0.4056133750224022,-0.893746542120587,-0.24462411772260753,-0.3791096728673587,0.0,-26.557499999999706
2021-02-05 10:16:00+01:00,-0.06065325896593944,0.4808285149779111,-0.6853883328708161,-0.21148903353263276,-0.1664882923130331,-26.557499999999706,0.0
2021-02-05 10:16:10+01:00,-0.07200541080291,-0.029869548900822464,-0.7426372993384099,-0.2966978012730684,-0.4043927719763796,0.0,0.0
2021-02-05 10:16:20+01:00,0.11117342787550229,-0.1043376451227739,-0.8554184737600524,-0.4161135957391333,-0.3959963457112519,0.0,0.0
2021-02-05 10:16:30+01:00,1.025909280914043,-0.6383926190864675,0.06218666290618214,-0.013205063774309517,0.05195292546787255,0.0,0.0
2021-02-05 10:16:40+01:00,-1.4400302328175603,-0.3967955487814374,1.4528357060314248,-0.4161135957391333,-0.3208545880207597,0.0,0.0
2021-02-05 10:16:50+01:00,-0.12355497785929814,-0.41873514026193304,-0.3950581858641282,-0.4161135957391333,-0.4043927719763796,0.0,0.0
2021-02-05 10:17:00+01:00,0.3273493107625347,0.5364569422804963,-0.09691085576855307,-0.4161135957391333,-0.4043927719763796,0.0,0.0
2021-02-05 10:17:10+01:00,1.022085159034265,-0.17378889159198954,0.3848735248133257,-0.33820112708174743,-0.40076366534778296,0.0,0.0
2021-02-05 10:17:20+01:00,-0.3652705614258332,0.7841202518941163,-0.5312608082794711,-0.3470714418698859,-0.3580069336788421,0.0,0.0
2021-02-05 10:17:30+01:00,-0.3870862607829094,1.5015847572291192,-0.4265832071517818,-0.4161135957391333,-0.26437558113220555,0.0,0.0
2021-02-05 10:17:40+01:00,0.49946840629999817,-0.1089043028562598,-0.3090364278098597,-0.3743543699865301,-0.29024658314581475,0.0,0.0
2021-02-05 10:17:50+01:00,-1.1938563397266007,-0.3225797683589238,1.0519815019241867,0.49019420314664286,-0.3408595230941466,0.0,0.0
2021-02-05 10:18:00+01:00,0.552168030778332,-0.645899140088691,-0.6136651650372736,-0.4161135957391333,2.0458925253965825,0.0,0.0
2021-02-05 10:18:10+01:00,1.636471158187319,-0.0924423975237126,1.31194433498134,-0.24094997102173335,-0.27902126490190254,0.0,44.24250000000029
2021-02-05 10:18:20+01:00,-0.21670185675080078,-0.11872164544775625,-0.47508194744021115,5.943806811367406,-0.4043927719763796,44.24250000000029,44.24250000000029
2021-02-05 10:18:30+01:00,0.10096066227926725,-0.41506104599486443,-0.7154404934237839,-0.05935953829227302,-0.4042144150193747,44.24250000000029,26.557499999999706
2021-02-05 10:18:40+01:00,-0.7176175199235361,-0.6440096058941986,0.6048869091463606,-0.17876550909588657,-0.2898586901127819,26.557499999999706,0.0
2021-02-05 10:18:50+01:00,0.42029466537889404,-0.38100590297434783,-0.6132579583081134,2.838684706372391,-0.2588660664165252,0.0,-44.24250000000029
2021-02-05 10:19:00+01:00,0.32026977418476293,-0.27388453014559816,-0.679188556673697,1.0906150303324864,-0.09931712472621343,-44.24250000000029,0.0
2021-02-05 10:19:10+01:00,-0.14893548808339827,-0.05888385033303916,-0.6132579583081134,0.06440568272416511,-0.3266471132014193,0.0,0.0
2021-02-05 10:19:20+01:00,0.5798891670545003,-0.5962463804223064,-0.5393632436481935,0.10153589532267866,0.3868436389692184,0.0,0.0
2021-02-05 10:19:30+01:00,1.170349398542529,-0.6254212607688182,0.2757927905772203,-0.4161135957391333,-0.40096843158451356,0.0,0.0
2021-02-05 10:19:40+01:00,0.2090791848403717,-0.6669989385938565,-0.6905587760048733,-0.4161135957391333,-0.3909186496673319,0.0,0.0
2021-02-05 10:19:50+01:00,0.5559071603004766,-0.6004978323599142,-0.5763106009781535,-0.21536240023026051,-0.3713349830279374,0.0,0.0
2021-02-05 10:20:00+01:00,0.37366390008581224,-0.4607501612736989,-0.7355756541235907,0.777289574961391,-0.3685560396205525,0.0,0.0
2021-02-05 10:20:10+01:00,0.21728993733117927,-0.15009666266939248,-0.7375319403383171,-0.37044232261799986,-0.036579576662818955,0.0,0.0
2021-02-05 10:20:20+01:00,0.26083841507526545,-0.1887513203235547,-0.70318945324525,-0.4161135957391333,-0.4043927719763796,0.0,0.0
2021-02-05 10:20:30+01:00,-0.9133891432757596,-0.39806971942455077,0.7083083594303808,-0.2985624875168105,-0.24956300688358865,0.0,0.0
2021-02-05 10:20:40+01:00,0.15896919548161353,-0.5026630529622524,-0.7356840238954864,-0.4161135957391333,-0.39748546528648093,0.0,0.0
2021-02-05 10:20:50+01:00,0.6709422030708831,-0.6270867696897292,-0.4322626809368702,-0.4161135957391333,-0.4043927719763796,0.0,26.557499999999706
2021-02-05 10:21:00+01:00,-1.1197830541879898,-0.6657174460057396,1.1894567028204066,-0.4161135957391333,-0.37205487843466517,26.557499999999706,0.0
2021-02-05 10:21:10+01:00,0.08464103499919803,-0.3780051809584293,-0.7185096668076048,-0.4161135957391333,-0.4043927719763796,0.0,0.0
2021-02-05 10:21:20+01:00,1.1874284342140191,-0.4889628278239021,0.39633300640967234,-0.4161135957391333,-0.4043927719763796,0.0,0.0
2021-02-05 10:21:30+01:00,-0.13095718738861198,0.7816157740447323,-0.5724853930362876,0.36040814343188604,-0.40164886128699817,0.0,0.0
2021-02-05 10:21:40+01:00,0.029386575236160152,-0.2672574823367889,-0.7185096668076048,0.5471578085703802,-0.2779289986510419,0.0,0.0
2021-02-05 10:21:50+01:00,0.1024905587597043,0.13867744711333727,-0.6960930920444003,0.6662674214518159,-0.3558596167029385,0.0,0.0
2021-02-05 10:22:00+01:00,-0.23412390215745985,0.11186111484062737,-0.6132579583081134,0.15015200515170457,-0.3248555938992083,0.0,0.0
2021-02-05 10:22:10+01:00,-0.7024751897284673,0.153058901815863,0.020570101826632846,-0.22064785377592383,-0.3352925412468181,0.0,0.0
2021-02-05 10:22:20+01:00,-0.04940905234630966,-0.11140304911858714,-0.7170426699091245,0.05212610465987066,-0.4043927719763796,0.0,0.0
2021-02-05 10:22:30+01:00,-0.7370278957554207,-0.018444228455931397,0.19059149514732002,0.057593522163639575,-0.3999363677121297,0.0,0.0
2021-02-05 10:22:40+01:00,-0.13112739731162998,0.06901404269502284,-0.7287847165025955,2.5727059109759067,-0.3903890223417302,0.0,26.557499999999706
2021-02-05 10:22:50+01:00,0.04013696934458434,-0.295191248391179,-0.7139995539011091,0.3620267210794764,-0.4012927267602477,26.557499999999706,0.0
2021-02-05 10:23:00+01:00,0.1804413220841442,-0.5764062713801357,-0.7139995539011091,2.284015518914644,-0.3032047004669151,0.0,0.0
2021-02-05 10:23:10+01:00,0.7680273815530707,-0.661475546713226,-0.3191298468463549,-0.3820929923973274,-0.2149540096043174,0.0,0.0
2021-02-05 10:23:20+01:00,-1.8217594075866472,0.9059962886723347,1.0731273959840981,-0.09296680457349897,1.408469715135716,0.0,0.0
2021-02-05 10:23:30+01:00,-0.01603420380503848,4.826285177663567,2.4464959918066222,-0.4161135957391333,-0.4043927719763796,0.0,0.0
2021-02-05 10:23:40+01:00,-1.4661230699197125,1.1546010744444786,1.9792406109184173,-0.25638401111734904,-0.04852008784477306,0.0,0.0
2021-02-05 10:23:50+01:00,-2.278905981073934,1.9691401838245808,1.2566036061135986,-0.2548633469474818,0.9749374718707041,0.0,0.0
2021-02-05 10:24:00+01:00,-0.8803651553165944,-0.22766782542742486,0.5412284546454706,-0.4161135957391333,-0.37262069725278907,0.0,0.0
2021-02-05 10:24:10+01:00,0.4823829574450029,0.14320937940729325,-0.1551790103436499,-0.3803230851074341,-0.23562278773562642,0.0,0.0
2021-02-05 10:24:20+01:00,-0.25437901916871963,-0.059761218795309025,0.186176348958536,-0.39882010437779236,0.7165840443815209,0.0,0.0
2021-02-05 10:24:30+01:00,-1.6653360405363793,-0.6537771697570822,1.9532203196142903,-0.4161135957391333,-0.4043927719763796,0.0,0.0
2021-02-05 10:24:40+01:00,-0.06758436530514089,0.6304608065703587,-0.5895296745211617,-0.2277640954669361,-0.24100866390499895,0.0,0.0
2021-02-05 10:24:50+01:00,0.4934483229236347,0.6969174877559065,0.25150782413022504,-0.37722611089026087,-0.3811341597442931,0.0,0.0
2021-02-05 10:25:00+01:00,0.2497325174388985,-0.6447969118085703,-0.7637799019403246,-0.37307593665132066,1.4294352742850043,0.0,0.0
2021-02-05 10:25:10+01:00,-1.2866361247470848,0.08298047170914066,0.8969018230292427,-0.3730630430943531,0.40312083683870636,0.0,0.0
2021-02-05 10:25:20+01:00,-1.0745525861709055,4.246488034499822,0.5387817745486388,-0.09709594195633434,2.3786338603813113,0.0,-26.557499999999706
2021-02-05 10:25:30+01:00,0.613389705088911,-0.2143087294443596,-0.22222384878617565,-0.38705662405366886,-0.21979784878144154,-26.557499999999706,0.0
2021-02-05 10:25:40+01:00,0.29794605589732426,0.9885181832324138,0.18071295123640396,-0.1209124098147866,-0.226518633196216,0.0,0.0
2021-02-05 10:25:50+01:00,4.055622208826461,-0.6353142109716248,4.352727655579175,-0.39896742699988474,-0.3989373828100146,0.0,0.0
2021-02-05 10:26:00+01:00,-1.566320265992682,-0.6628371975408383,1.8194678763231993,-0.3852010828641167,-0.37218002608267164,0.0,0.0
2021-02-05 10:26:10+01:00,-0.6015817167577246,-0.6669464515328984,0.4568433963195374,-0.1392446565363295,-0.3909186496673319,0.0,0.0
2021-02-05 10:26:20+01:00,-1.8231425262249172,-0.6408900794158012,2.167484653632899,-0.40152649106848365,-0.13527864092874456,0.0,0.0
2021-02-05 10:26:30+01:00,1.4335432835938755,-0.6555078046232301,0.6270801985157493,-0.21777368927125934,-0.39649213951573564,0.0,0.0
2021-02-05 10:26:40+01:00,-2.8839965460293047,5.837682289365444,-0.8986822798359553,-0.15332991424029893,2.2264965887271706,0.0,0.0
2021-02-05 10:26:50+01:00,0.08089114264152614,-0.07333834602959423,-0.8763896610843708,-0.31381850604517303,-0.2142990459929969,0.0,0.0
2021-02-05 10:27:00+01:00,0.34172259576940867,-0.4249023699245125,-0.7554711092055677,0.0660214166799931,-0.3855027127310879,0.0,0.0
2021-02-05 10:27:10+01:00,-1.3907598729459758,2.430131394871906,-0.6132579583081134,-0.35354539699877735,-0.25883666588164683,0.0,0.0
2021-02-05 10:27:20+01:00,0.7826673963349976,2.4696016647124153,1.91273538996407,-0.4161135957391333,-0.4043927719763796,0.0,0.0
2021-02-05 10:27:30+01:00,-0.04261648019812153,-0.27198131782302004,-0.6132579583081134,-0.4161135957391333,-0.4043927719763796,0.0,0.0
2021-02-05 10:27:40+01:00,0.6111108671400706,-0.6634298184487042,-0.542615341292808,-0.314063839089026,-0.2606521556474456,0.0,0.0
2021-02-05 10:27:50+01:00,-0.583710677800943,-0.6608054654007981,0.42721135257253373,-0.4161135957391333,-0.23818225116471928,0.0,0.0
2021-02-05 10:28:00+01:00,-0.5577335555835302,-0.6713043839710722,0.3907410342562541,-0.4161135957391333,-0.3930839411223959,0.0,0.0
2021-02-05 10:28:10+01:00,1.8222556557786385,-0.5143518269609169,1.2769612701152873,-0.4161135957391333,-0.4043927719763796,0.0,0.0
2021-02-05 10:28:20+01:00,-2.9594874881715802,-0.6625900254733742,3.791233421401241,-0.4161135957391333,-0.4043927719763796,0.0,0.0
2021-02-05 10:28:30+01:00,0.1510962546168454,-0.6602439063356071,-0.6132579583081134,-0.05574055274865086,-0.39066517447845406,0.0,44.24250000000029
2021-02-05 10:28:40+01:00,-0.6972334295758882,-0.5675025238203825,0.5220057913696409,-0.23098997293910525,-0.3124716628261857,44.24250000000029,0.0
2021-02-05 10:28:50+01:00,0.18251270965156424,-0.6210727602554986,-0.6853883328708161,-0.4161135957391333,-0.17415788399844379,0.0,0.0
2021-02-05 10:29:00+01:00,0.967574851146886,0.1755303656798716,0.5544042684967253,0.0398712473251009,-0.040522522548237856,0.0,0.0
2021-02-05 10:29:10+01:00,0.010333528162476874,-0.46786302931873647,-0.5498751522946388,-0.4093576950349499,-0.4005536846257188,0.0,0.0
2021-02-05 10:29:20+01:00,1.9110286440091944,-0.4647372883723218,1.4376512354586506,0.22361509795620987,-0.3813702533153922,0.0,0.0
2021-02-05 10:29:30+01:00,0.37100182925005143,-0.46355909032017034,-0.7413272916426135,-0.3635584234698357,-0.07752211208170266,0.0,0.0
2021-02-05 10:29:40+01:00,0.3644792733388598,-0.46938515408652204,-0.7546738795302108,-0.4161135957391333,-0.2797153169420416,0.0,0.0
2021-02-05 10:29:50+01:00,0.29596382441223085,0.2130936021397646,-0.36969179013544395,-0.3139557464873811,-0.2755588601145135,0.0,0.0
2021-02-05 10:30:00+01:00,0.3399902610893516,-0.41212177058120947,-0.7488975560762144,-0.4161135957391333,-0.24931969118293185,0.0,0.0
2021-02-05 10:30:10+01:00,0.9125000652697847,-0.6747145365547008,-0.12398717504620405,0.34812856536759185,-0.37470777142784895,0.0,0.0
2021-02-05 10:30:20+01:00,-0.0008103745911668756,-0.4084476763141408,-0.576060338972515,-0.4161135957391333,-0.38700480788610053,0.0,0.0
2021-02-05 10:30:30+01:00,0.45546753593997064,-0.4084476763141408,-0.5828521587635589,-0.4161135957391333,-0.4043927719763796,0.0,0.0
2021-02-05 10:30:40+01:00,0.5079050238338874,-0.4516311012924833,-0.5391260214502483,-0.4161135957391333,-0.374961300513216,0.0,0.0
2021-02-05 10:30:50+01:00,1.2087024879811208,-0.5843318175848122,0.35909621946523523,-0.24337870998945516,-0.27099896111680793,0.0,0.0
2021-02-05 10:31:00+01:00,0.17628620242213242,-0.5759995858857138,-0.7084054430413125,-0.4161135957391333,-0.03798056200402449,0.0,26.557499999999706
2021-02-05 10:31:10+01:00,0.2344414270497179,-0.6278435911190965,-0.7541086383380571,-0.32937556812418545,-0.2048347685866326,26.557499999999706,0.0
2021-02-05 10:31:20+01:00,1.3411905657921595,-0.649178059273806,0.5008307856981256,-0.3730602640319491,-0.31729686729215645,0.0,0.0
2021-02-05 10:31:30+01:00,1.4098345690640126,1.0124348205841374,1.7714105731857743,-0.4161135957391333,-0.4043927719763796,0.0,0.0
2021-02-05 10:31:40+01:00,0.2944334513293447,-0.47668085555970124,-0.8589714803495667,-0.3332355242299799,-0.29919539452912414,0.0,0.0
2021-02-05 10:31:50+01:00,-0.711108814289012,-0.4759870815879567,0.47701800262294647,-0.4161135957391333,-0.3882238252055224,0.0,0.0
2021-02-05 10:32:00+01:00,0.010334326864383432,-0.21949425686489668,-0.7252724454123846,-0.4161135957391333,-0.4043927719763796,0.0,0.0
2021-02-05 10:32:10+01:00,0.02297107680478048,-0.27198131782302004,-0.7060929973491462,-0.3589076948513799,-0.2260499358516958,0.0,0.0
2021-02-05 10:32:20+01:00,0.1398599302684899,-0.465796550744342,-0.7346709146068058,-0.4161135957391333,-0.17857242416467936,0.0,0.0
2021-02-05 10:32:30+01:00,0.05577079974337191,-0.09504995471211221,-0.8774665312519428,-0.2934233871528661,-0.02064021546198566,0.0,0.0
2021-02-05 10:32:40+01:00,0.47064769579976623,-0.628893332338259,-0.7170426699091245,-0.4161135957391333,-0.4043927719763796,0.0,0.0
2021-02-05 10:32:50+01:00,0.5819116452595985,-0.47357127013064937,-0.4498683116872129,-0.39450205538084154,-0.27208727944983196,0.0,0.0
2021-02-05 10:33:00+01:00,1.808147322453065,-0.6269592523751315,1.1774692980489205,0.022971898104944596,-0.25691824729552926,0.0,0.0
2021-02-05 10:33:10+01:00,1.8077384630190716,-0.3718746922385205,1.357029384829192,0.29992078382388293,2.07833868351105,0.0,0.0
2021-02-05 10:33:20+01:00,0.6368798685902004,-0.6067129197246754,-0.4660879013207211,-0.4161135957391333,-0.2786845196371548,0.0,-26.557499999999706
2021-02-05 10:33:30+01:00,0.8647884415641998,-0.5869036835717604,-0.12950859583531465,-0.4161135957391333,-0.4043927719763796,-26.557499999999706,0.0
2021-02-05 10:33:40+01:00,1.6280752404076304,-0.30111320076919507,1.152698689576972,-0.005571108609170859,3.743514401567683,0.0,0.0
2021-02-05 10:33:50+01:00,0.4666703095708624,-0.4278049936235004,-0.580665333344995,-0.1526441321200872,-0.3689575010947506,0.0,-26.557499999999706
2021-02-05 10:34:00+01:00,-0.35658902784437074,0.981094082662013,-0.7509829096996073,3.414090126475199,0.032355609542578975,-26.557499999999706,0.0
2021-02-05 10:34:10+01:00,1.204081581079391,-0.39348221907915837,0.48733217174101706,-0.09533246528758524,-0.39194442112459743,0.0,0.0
2021-02-05 10:34:20+01:00,0.11760017360094276,-0.47152041170559605,-0.6991214891563525,-0.3268173119225645,-0.4043927719763796,0.0,0.0
2021-02-05 10:34:30+01:00,0.25965945773777743,-0.673139924725957,-0.7578152351809502,-0.4161135957391333,-0.4043927719763796,0.0,0.0
2021-02-05 10:34:40+01:00,0.007060358713905609,-0.6334280831873885,-0.42832138979507867,-0.40532130078117906,-0.34457086229119527,0.0,0.0
2021-02-05 10:34:50+01:00,-0.5540612499146669,-0.12519051824966207,0.006997207668792515,-0.3783432616619996,-0.3636527391416785,0.0,0.0
2021-02-05 10:35:00+01:00,-0.04177949821136596,-0.4180003214085193,-0.511325129208555,-0.4161135957391333,-0.39738091957148497,0.0,0.0
2021-02-05 10:35:10+01:00,0.10527282506696573,-0.42419379460157786,-0.7150946086327925,-0.4161135957391333,-0.32091911559249775,0.0,0.0
2021-02-05 10:35:20+01:00,0.4700379746204076,-0.6098533675455706,-0.7044598114746179,-0.4161135957391333,-0.07469750487381237,0.0,0.0
2021-02-05 10:35:30+01:00,0.5138322194878692,-0.42419379460157786,-0.5113604308368868,-0.37310363033132354,-0.24714324315459602,0.0,0.0
2021-02-05 10:35:40+01:00,0.14140447310880636,-0.20899684992197812,-0.8865378858617851,-0.22050463511807922,-0.1844643748938575,0.0,0.0
2021-02-05 10:35:50+01:00,-1.0732158786601413,-0.021875916480670957,0.6688677560274519,-0.4161135957391333,-0.28759033509617604,0.0,0.0
2021-02-05 10:36:00+01:00,-1.3947076207874105,-0.62256770722312,1.5481230184239254,-0.4161135957391333,-0.4043927719763796,0.0,0.0
2021-02-05 10:36:10+01:00,-1.0917382681871282,-0.6248786075429844,1.1209210007023294,-0.283829869846099,-0.17976158282906438,0.0,0.0
2021-02-05 10:36:20+01:00,-1.4423531669677252,1.7748657730991728,-0.07748725046467647,-0.4161135957391333,-0.27099896111680793,0.0,0.0
2021-02-05 10:36:30+01:00,-0.646697229311554,1.6592936107980325,-0.6826733062823495,0.2444318587816298,-0.3720953546980816,0.0,0.0
2021-02-05 10:36:40+01:00,-1.2883967177624636,2.857902673753623,-0.744509627428048,-0.34543618984787133,-0.19336765721788446,0.0,0.0
2021-02-05 10:36:50+01:00,0.42352198933803076,-0.5921740353315117,-0.7578152351809502,-0.35051586351692043,2.846742641764952,0.0,0.0
2021-02-05 10:37:00+01:00,-1.7941260473406588,2.135049237890753,0.16606615589506285,-0.4161135957391333,-0.4043927719763796,0.0,0.0
2021-02-05 10:37:10+01:00,-1.032803332427527,0.2077504193342276,0.4495059580600259,-0.09296680457349897,1.1050778211575336,0.0,0.0
2021-02-05 10:37:20+01:00,0.9418058785023987,-0.27198131782302004,0.20190052597781347,0.46905772088604386,-0.3470355891663332,0.0,0.0
2021-02-05 10:37:30+01:00,-0.20533938201902524,0.1515210571733205,-0.6820081797184733,-0.373091835473446,0.9883586004567106,0.0,0.0
2021-02-05 10:37:40+01:00,-0.5931461964569464,-0.47521757403595577,0.30950595683191373,-0.3252040338823492,-0.2109181461714553,0.0,0.0
2021-02-05 10:37:50+01:00,0.27178349604677415,-0.3502404284890305,-0.8017397792100672,-0.4161135957391333,-0.4043927719763796,0.0,0.0
2021-02-05 10:38:00+01:00,-0.35696550449877035,-0.14916159518101132,-0.2550511606349988,0.0462022423135806,-0.16694855485698787,0.0,0.0
2021-02-05 10:38:10+01:00,0.3514920111027621,-0.032302004005159576,-0.4643916884734763,-0.4161135957391333,1.0313660990159448,0.0,0.0
2021-02-05 10:38:20+01:00,-0.3533930313308333,-0.10063979521191564,-0.2943735013590583,-0.29695967943262896,1.1728339408161557,0.0,0.0
2021-02-05 10:38:30+01:00,-1.117051357495538,3.0192984389298916,-0.3880046284436202,-0.41023232413991884,2.806637064927417,0.0,0.0
2021-02-05 10:38:40+01:00,0.5701103348947342,-0.15116970814362032,-0.23889475735787138,-0.4161135957391333,-0.17517976143436198,0.0,0.0
2021-02-05 10:38:50+01:00,-1.1597972576648292,0.17215058735841962,0.654398161961379,2.273177757203173,-0.288845153158573,0.0,0.0
2021-02-05 10:39:00+01:00,-0.28113952654691765,-0.006064525284226499,-0.4634321135629975,-0.4161135957391333,-0.4043927719763796,0.0,0.0
2021-02-05 10:39:10+01:00,-0.1228109621557677,1.5125502542790747,-0.04477448357808954,-0.2500702398528384,-0.08038900108539873,0.0,0.0
2021-02-05 10:39:20+01:00,-0.20654677314438566,-0.05888385033303916,-0.5317128277644618,-0.15703967171755953,-0.37474970289647475,0.0,0.0
2021-02-05 10:39:30+01:00,-0.1058085940112197,-0.21907898973600826,-0.5611727445672753,-0.3111617870162839,-0.194252516304042,0.0,0.0
2021-02-05 10:39:40+01:00,0.14615168751564286,-0.5680844636113435,-0.6713415428934183,-0.3918446254290119,-0.34141867222172745,0.0,0.0
2021-02-05 10:39:50+01:00,0.34621787340797877,-0.6437158358140159,-0.9011122691272034,-0.4161135957391333,-0.4043927719763796,0.0,0.0
2021-02-05 10:40:00+01:00,1.0106837128868404,-0.47271198346087956,0.15763825537735646,-0.4161135957391333,-0.29908890854051573,0.0,0.0
2021-02-05 10:40:10+01:00,-0.9177139176974968,2.359915154737932,-0.5715066142475659,-0.4161135957391333,1.1598796097234243,0.0,0.0
2021-02-05 10:40:20+01:00,0.6292629470388538,-0.3920787833023174,-0.3252961561805795,-0.376888745640284,-0.3633400047628855,0.0,0.0
2021-02-05 10:40:30+01:00,0.9621856322914984,-0.6515716529582097,-0.03731706648537043,1.3487479832128648,-0.0038511761083437758,0.0,0.0
2021-02-05 10:40:40+01:00,-0.3304532755722374,-0.3561581031715785,-0.1463981639679664,1.5940990263420824,-0.2869836896874558,0.0,0.0
2021-02-05 10:40:50+01:00,-1.4023402649821892,2.7887710577395244,-0.8501352833632283,-0.4161135957391333,-0.4043927719763796,0.0,0.0
2021-02-05 10:41:00+01:00,0.5418105927705296,-0.3253487337571819,-0.4019551729273955,-0.051260865726758996,-0.2842944704605268,0.0,0.0
2021-02-05 10:41:10+01:00,0.19364801523026007,-0.5695547416603146,-0.7375312916838697,-0.4161135957391333,-0.38471360075805855,0.0,0.0
2021-02-05 10:41:20+01:00,0.15259302198967759,-0.6674428741554403,-0.6102926808337988,0.34327696870374763,-0.33836957266204615,0.0,0.0
2021-02-05 10:41:30+01:00,-0.07671834649513525,-0.1984886096496777,-0.6168889220424275,-0.4161135957391333,-0.3248045000274124,0.0,0.0
2021-02-05 10:41:40+01:00,-0.22865258983955514,-0.2850855471354848,-0.34068150206265757,-0.40859106158758857,-0.32419815104938293,0.0,0.0
2021-02-05 10:41:50+01:00,-1.5366564981338153,-0.403977930690008,1.5946762179218756,0.4538812610976663,-0.3229398566634302,0.0,0.0
2021-02-05 10:42:00+01:00,-1.0249989777976238,2.2417316929209457,-0.8068221054173782,1.1199669057795685,-0.10363609294291096,0.0,0.0
2021-02-05 10:42:10+01:00,-0.06430162452716515,0.1987273581875044,-0.8897700827879501,-0.4161135957391333,-0.4043927719763796,0.0,0.0
2021-02-05 10:42:20+01:00,0.311955667048556,-0.35855856741226166,-0.7507528189939879,-0.38355901244480856,-0.2876083095753363,0.0,0.0
2021-02-05 10:42:30+01:00,-0.326509442679492,0.4755006846377043,-0.7392916027103186,4.391641161283569,-0.3975347536258874,0.0,0.0
2021-02-05 10:42:40+01:00,0.18447553137098166,-0.6368112259294479,-0.6770521965711491,-0.4161135957391333,-0.3129084803973227,0.0,0.0
2021-02-05 10:42:50+01:00,-0.4395339118312498,0.6083066532333726,-0.6730991925833341,-0.3982041219644724,0.001529674213407471,0.0,0.0
2021-02-05 10:43:00+01:00,-0.5525354647850274,-0.45561814441180865,0.2381830643914353,-0.4161135957391333,-0.31920464132164994,0.0,0.0
2021-02-05 10:43:10+01:00,0.17288149593498775,-0.6441380732245997,-0.6554674080856678,-0.39188408165221317,-0.20323769434346348,0.0,0.0
2021-02-05 10:43:20+01:00,0.3625796093000379,-0.42419379460157786,-0.725448935021059,1.439458260443537,-0.17377839881773177,0.0,0.0
2021-02-05 10:43:30+01:00,0.5445050044867679,-0.5827249944467586,-0.5798985867220741,3.489807200462764,-0.33591741714302253,0.0,0.0
2021-02-05 10:43:40+01:00,-2.2851787946830817,5.188691553466022,-0.5094060090403724,-0.27366457660704335,0.7320821550249775,0.0,0.0
2021-02-05 10:43:50+01:00,-0.8426341813397339,2.010650237320281,-0.7118842583884194,-0.4161135957391333,3.0172523507817606,0.0,0.0
2021-02-05 10:44:00+01:00,0.23019652281863331,-0.4146359008011036,-0.8986659152108939,-0.4161135957391333,-0.4043927719763796,0.0,0.0
2021-02-05 10:44:10+01:00,0.3417211266816396,-0.39504395583184904,-0.7343874007208897,-0.4161135957391333,-0.20006812265621698,0.0,0.0
2021-02-05 10:44:20+01:00,-0.361789166462188,1.0466451730926132,-0.7120516890744097,-0.3008983217820722,-0.049005102351409605,0.0,0.0
2021-02-05 10:44:30+01:00,0.4008144987125477,0.3596544768938894,-0.11778210212219657,-0.02795067194602588,-0.2962206451763441,0.0,0.0
2021-02-05 10:44:40+01:00,0.10785372160207557,-0.4609347372722642,-0.6928015265566027,-0.2045025352782735,-0.1748398362767493,0.0,0.0
2021-02-05 10:44:50+01:00,1.2285890603644556,-0.6662861433112209,0.3293688754068037,-0.4161135957391333,-0.4009296530605081,0.0,0.0
2021-02-05 10:45:00+01:00,0.44054308376891815,-0.36927113981287196,-0.5763106009781535,-0.21840550587734642,-0.2645858448108382,0.0,0.0
2021-02-05 10:45:10+01:00,-0.4804921416811829,0.8938162252856902,-0.8167501249829531,-0.3944465710767984,-0.4043927719763796,0.0,0.0
2021-02-05 10:45:20+01:00,0.2335448357137876,0.05890961162620395,-0.5669254977719478,0.8042852255806889,-0.3975259954463865,0.0,0.0
2021-02-05 10:45:30+01:00,0.49530205505609426,-0.4182627567133099,-0.5334002522705922,-0.4161135957391333,-0.3041594632996119,0.0,0.0
2021-02-05 10:45:40+01:00,0.20195907944313796,-0.5668483775796613,-0.751206291464941,0.01628986875722167,-0.3958133132338058,0.0,0.0
2021-02-05 10:45:50+01:00,-0.4342065517838492,1.2822542990378845,-0.6481685221399193,-0.3955060401463141,-0.05282372251028299,0.0,0.0
2021-02-05 10:46:00+01:00,0.3435797269676869,-0.6184584374849417,-0.8895302993315863,-0.4161135957391333,-0.4043927719763796,0.0,0.0
2021-02-05 10:46:10+01:00,2.4895003860671956,-0.4514834289464776,2.2658011785886574,-0.4161135957391333,0.08324703265079425,0.0,0.0
2021-02-05 10:46:20+01:00,-0.0009268593721706444,-0.40277907373066346,-0.5798985867220741,0.9240285939489586,-0.2521832655525399,0.0,0.0
2021-02-05 10:46:30+01:00,-0.1709537722870019,0.11313252991304053,-0.7035691459060455,0.3870801948545107,-0.3801393518200938,0.0,0.0
2021-02-05 10:46:40+01:00,0.40817601634374523,-0.6504130273310896,-0.8206644283931315,-0.373013375432551,-0.29960977768661656,0.0,0.0
2021-02-05 10:46:50+01:00,-0.0561250355283987,0.5539040140011093,-0.627373550136109,-0.2712406848411891,0.14948259760684046,0.0,0.0
2021-02-05 10:47:00+01:00,0.3599285841188402,-0.4174740546431166,-0.724455863594911,-0.4161135957391333,-0.0618760151529258,0.0,0.0
2021-02-05 10:47:10+01:00,1.1957563968642837,-0.5324430146449017,0.37741532933526956,-0.29281231657077184,-0.23520296103272112,0.0,0.0
2021-02-05 10:47:20+01:00,0.10993825501726864,-0.4248656814689028,1.6518589660368712,-0.400235810469889,-0.24899748449615558,0.0,0.0
2021-02-05 10:47:30+01:00,0.11181342902255008,-0.42674490720462305,-0.5393093237839199,-0.331930916004686,-0.3937404407836596,0.0,0.0
2021-02-05 10:47:40+01:00,0.3756564413722368,-0.29832340325644285,-0.6180507807690102,-0.39017909455266503,-0.19707382235196658,0.0,0.0
2021-02-05 10:47:50+01:00,-0.08033155607899989,-0.5243797581383893,-0.38163276978147304,-0.049314423344852025,-0.35576606587174675,0.0,0.0
2021-02-05 10:48:00+01:00,-1.4392980876574468,-0.6564901524561223,1.6351937804507009,-0.3972480275534507,-0.39700712047038744,0.0,0.0
2021-02-05 10:48:10+01:00,-0.4664745985034762,-0.6364514691162289,0.24407248723489902,-0.37301935364818756,-0.35078466937996955,0.0,0.0
2021-02-05 10:48:20+01:00,0.1850289139509402,-0.34339396901929803,-0.8850445387663486,-0.12045111777039762,-0.3799956772539124,0.0,0.0
2021-02-05 10:48:30+01:00,0.04421194123429724,-0.33446934210669566,-0.6920295239793585,-0.4161135957391333,-0.4043927719763796,0.0,0.0
2021-02-05 10:48:40+01:00,1.0378537605596736,-0.5479162946920663,0.14298701953299756,-0.35273122865843554,-0.2862752203364461,0.0,0.0
2021-02-05 10:48:50+01:00,-0.7327118363498958,2.918196056557457,0.0846059138323073,-0.2690753751376255,-0.38957123743642713,0.0,0.0
2021-02-05 10:49:00+01:00,0.5658864744948655,0.04091422857458576,-0.10922513048922687,-0.4161135957391333,-0.21614917772725223,0.0,0.0
2021-02-05 10:49:10+01:00,0.3276190127561581,-0.441807350030844,-0.7873720090658655,-0.4161135957391333,0.30738560788649055,0.0,0.0
2021-02-05 10:49:20+01:00,1.0678130297930921,-0.5674268059862444,0.17161429383421697,-0.2698268530004812,-0.20018144002483604,0.0,0.0
2021-02-05 10:49:30+01:00,-0.3346562963990826,1.9640789930027476,-0.0257619509838801,-0.14411806560857754,-0.20145741245925827,0.0,0.0
2021-02-05 10:49:40+01:00,1.0156956956663434,-0.40902624643578833,0.20970678943240148,-0.38518424691629694,-0.2651190966753411,0.0,0.0
2021-02-05 10:49:50+01:00,1.5073334358533597,-0.39219691593041583,0.9174736653163046,-0.4074649273350554,-0.4026790657305033,0.0,0.0
2021-02-05 10:50:00+01:00,2.013260154787647,-0.47621581495090615,1.5742474243267717,-0.4161135957391333,-0.3885660544380499,0.0,0.0
2021-02-05 10:50:10+01:00,0.28129507207383725,-0.5965927530349812,1.2694612975842148,-0.4161135957391333,-0.3178089782587564,0.0,0.0
2021-02-05 10:50:20+01:00,-1.852720919396713,-0.5138001669554225,2.1196010564499193,-0.39817875494136595,-0.4043927719763796,0.0,0.0
2021-02-05 10:50:30+01:00,0.22751310438306263,-0.46382152562496093,-0.860133187105679,0.29830317561666597,-0.34385704371362885,0.0,0.0
2021-02-05 10:50:40+01:00,-1.2082320863065636,2.9709617975657374,-0.5512001568812616,-0.11709152215604414,1.0206645603285522,0.0,0.0
2021-02-05 10:50:50+01:00,0.3924473682445263,0.6232094986533383,0.05649533171779319,-0.38691647529034034,-0.21641076433776013,0.0,0.0
2021-02-05 10:51:00+01:00,-0.06618473317761635,-0.27198131782302004,-0.5798985867220741,0.7171270425078674,-0.28993461679199334,0.0,0.0
2021-02-05 10:51:10+01:00,-0.46227128700151093,-0.5247946683552633,0.15927177113900381,-0.4161135957391333,-0.4043927719763796,0.0,0.0
2021-02-05 10:51:20+01:00,0.1686336063918591,-0.4836878572027863,-0.27457787975644776,0.11819769933664903,-0.3062016012767712,0.0,0.0
2021-02-05 10:51:30+01:00,0.5099192479130531,-0.5355325500166677,-0.5955255878919216,-0.20098812003627253,-0.19224830798118273,0.0,0.0
2021-02-05 10:51:40+01:00,1.1125621817104394,-0.5971341308252337,0.21397479855290996,-0.41161742823089204,-0.23421548303105794,0.0,0.0
2021-02-05 10:51:50+01:00,0.3504210958743217,-0.2712475434621194,-0.6346490474557789,-0.3987178930477467,-0.3362313507187011,0.0,0.0
2021-02-05 10:52:00+01:00,0.41019608273095504,-0.005183078577320149,-0.36214860609837723,0.9342644301325254,3.350814044229153,0.0,0.0
2021-02-05 10:52:10+01:00,-0.5554054076120672,-0.6624325642904999,0.38829607772695435,-0.4161135957391333,-0.4043927719763796,0.0,0.0
2021-02-05 10:52:20+01:00,-0.0570522132193069,-0.5091893676036708,-0.42531054712577426,-0.07081425185743774,-0.2211115757065737,0.0,0.0
2021-02-05 10:52:30+01:00,-2.0708956965236953,1.7606804467973292,-0.24982177149134913,-0.41072095440284034,-0.07692429222309483,0.0,-26.557499999999706
2021-02-05 10:52:40+01:00,-0.33679020006687815,2.6039063540953875,0.4230589225547805,2.6453480816721346,-0.16937136373762235,-26.557499999999706,0.0
2021-02-05 10:52:50+01:00,0.32902136308885976,0.443361576528758,-0.16028741987294426,-0.18613519481521004,0.11818971656904899,0.0,0.0
2021-02-05 10:53:00+01:00,0.07096286157092212,-0.6565015264022319,-0.5024770488727381,-0.4062315083478553,-0.3105258917717808,0.0,0.0
2021-02-05 10:53:10+01:00,0.31939157394224105,-0.6321375313325501,-0.8713178504923031,-0.4161135957391333,-0.4043927719763796,0.0,26.557499999999706
2021-02-05 10:53:20+01:00,0.04416578673887912,-0.6549380890687663,-0.4656515718601663,0.05115666428637395,-0.34156939375387646,26.557499999999706,0.0
2021-02-05 10:53:30+01:00,1.088228264277705,-0.4659734951242441,0.2721563336663852,-0.4161135957391333,-0.38115694448511767,0.0,0.0
2021-02-05 10:53:40+01:00,-1.014737687787199,-0.4669263347314656,0.9003868395128679,-0.23133758194236215,-0.23374231227793113,0.0,0.0
2021-02-05 10:53:50+01:00,-0.6124273737446921,-0.24192263934927083,0.17204611236641415,-0.36420979045678825,-0.3365456480956819,0.0,0.0
2021-02-05 10:54:00+01:00,-0.7155722852608388,2.7915377032096877,0.01942068614565164,-0.3166604205000792,-0.4043927719763796,0.0,0.0
2021-02-05 10:54:10+01:00,-0.7071901837147859,-0.6644795596678666,0.6045834018770739,0.02452271187042768,-0.3868764129746176,0.0,0.0
2021-02-05 10:54:20+01:00,-0.2758372483580767,-0.6707780069828415,-0.0015214822319836881,-0.4161135957391333,-0.11625196755736149,0.0,0.0
2021-02-05 10:54:30+01:00,0.3254355712392945,-0.6119347629426894,-0.8941397898060369,-0.4161135957391333,-0.34645434247816553,0.0,0.0
2021-02-05 10:54:40+01:00,0.6836017696988591,2.3445701688138683,1.6842179567877886,-0.4161135957391333,-0.4043927719763796,0.0,0.0
2021-02-05 10:54:50+01:00,-0.009705174675146047,0.04588851656959064,-0.884319120698226,1.3439763653798344,-0.3973540791198454,0.0,0.0
2021-02-05 10:55:00+01:00,0.6816991884340573,-0.181114956829933,-0.10209490211302376,-0.3433776478441089,-0.17474272827726803,0.0,0.0
2021-02-05 10:55:10+01:00,-0.5551575769572088,-0.5422752215720614,0.303091075700211,1.338573480290261,-0.26410840276093944,0.0,0.0
2021-02-05 10:55:20+01:00,0.14292095925329804,-0.550162740901074,-0.6794248373960441,2.4730824050632285,-0.3672063502629775,0.0,0.0
2021-02-05 10:55:30+01:00,-1.9923729002751058,-0.4101589749470317,2.2440789717318226,0.6261856183774746,-0.4043927719763796,0.0,0.0
2021-02-05 10:55:40+01:00,-0.39008141126325024,-0.5465605329126936,0.07246245762713827,0.23031625759396987,-0.2579271491516638,0.0,0.0
2021-02-05 10:55:50+01:00,1.8127526428834912,-0.5271032959853881,1.254505364652983,0.5689379992389816,-0.4043927719763796,0.0,0.0
2021-02-05 10:56:00+01:00,-1.1457913441106207,-0.48468127980554077,1.0984234108519295,0.742326966408658,-0.4043927719763796,0.0,0.0
2021-02-05 10:56:10+01:00,0.06385328070799118,-0.4311680758108617,-0.6515426780185702,0.17446938285114263,-0.25408982691102555,0.0,0.0
2021-02-05 10:56:20+01:00,-0.7972149237601998,-0.2509842207500312,0.4400004238157979,-0.4161135957391333,0.1431521719894814,0.0,0.0
2021-02-05 10:56:30+01:00,-0.6092917774261516,0.005121695603176092,-0.006852980705461326,0.3573339187488108,-0.29902448876175614,0.0,0.0
2021-02-05 10:56:40+01:00,0.18324466364695888,-0.3138102249653345,-0.9013341608406065,-0.4161135957391333,-0.2931900321124708,0.0,0.0
2021-02-05 10:56:50+01:00,0.4596079621055971,-0.32913551774412764,-0.5209819963886848,-0.40765416209596206,-0.3376752915618278,0.0,0.0
2021-02-05 10:57:00+01:00,0.2900200628950992,-0.5596948478084995,-0.8809028134002775,-0.4161135957391333,-0.30173631756591973,0.0,0.0
2021-02-05 10:57:10+01:00,-0.10609700919770894,-0.6156856772721763,-0.28068384569407007,0.6641703926652257,-0.3557335258663704,0.0,0.0
2021-02-05 10:57:20+01:00,0.8788149773397655,0.2521090348561286,0.4828495617830955,0.2995962798161943,-0.4043927719763796,0.0,0.0
2021-02-05 10:57:30+01:00,-0.9588114778216551,-0.33020850023388226,0.7246777178159229,2.4277717637610357,-0.39126075763275864,0.0,0.0
2021-02-05 10:57:40+01:00,-0.5563473652162885,-0.5891081401320015,0.3378482012491086,0.05969391167685795,-0.4043927719763796,0.0,0.0
2021-02-05 10:57:50+01:00,1.3313090467541615,-0.6396240442671365,0.4935910941039581,0.21319215978055794,-0.3867560216917863,0.0,0.0
2021-02-05 10:58:00+01:00,-0.12740927495897447,-0.6155282055918897,-0.25062888666048594,-0.4161135957391333,-0.4043927719763796,0.0,0.0
2021-02-05 10:58:10+01:00,0.5571316934018374,-0.6080329378155357,-0.5798985867220741,-0.4161135957391333,-0.265355136349951,0.0,0.0
2021-02-05 10:58:20+01:00,0.28617363235452853,-0.6131472140508221,-0.837710774452447,1.1375442815969483,-0.3985524675580121,0.0,44.24250000000029
2021-02-05 10:58:30+01:00,-1.158254181293587,-0.6171825085252861,1.209635141744951,-0.2351513926863781,2.2423581772940357,44.24250000000029,0.0
2021-02-05 10:58:40+01:00,0.300872923911394,-0.6646205661571307,-0.8221665971890539,-0.34547390107840037,2.9273276619117317,0.0,0.0
2021-02-05 10:58:50+01:00,0.17157217735288055,-0.6570263970118132,-0.6445125129307379,0.5125502737117803,0.3937096070518729,0.0,0.0
2021-02-05 10:59:00+01:00,-0.5004326696516724,-0.3973729064519768,0.12330250317075271,-0.13938066902073107,-0.32743083552552504,0.0,0.0
2021-02-05 10:59:10+01:00,0.3685185995552886,-0.47668085555970124,-0.7541086383380571,-0.4161135957391333,0.06566978409031761,0.0,88.45500000000175
2021-02-05 10:59:20+01:00,-0.39031958155308205,0.7145801763229354,-0.8178085288850537,6.642279584676451,1.5035429469847663,88.45500000000175,-26.557499999999706
2021-02-05 10:59:30+01:00,0.11602745360484192,1.3093016163684588,0.14975352697420125,-0.38720365584364924,-0.4043927719763796,-26.557499999999706,26.557499999999706
2021-02-05 10:59:40+01:00,-0.002184888198404856,-0.32734222907331406,-0.6313908598725515,0.2709922629879068,-0.36782590388086983,26.557499999999706,0.0
2021-02-05 10:59:50+01:00,0.03929476306175159,1.4744053457122317,0.15773827047996813,-0.07153124995767603,0.3220320596811592,0.0,0.0
2021-02-05 11:00:00+01:00,0.08289591061385744,-0.35690013374716784,-0.730943779510806,0.42303250508454654,0.9987731807612874,0.0,-44.24250000000029
2021-02-05 11:00:10+01:00,0.9279616693505771,-0.6687834986664328,-0.09791379786209367,-0.4161135957391333,-0.4043927719763796,-44.24250000000029,0.0
2021-02-05 11:00:20+01:00,-1.7779125479037563,2.151590162493573,0.13143589603630712,-0.20740345633724652,-0.2098633379806138,0.0,0.0
2021-02-05 11:00:30+01:00,0.5450609638623855,-0.3588377828304406,-0.4210041932609262,-0.4161135957391333,-0.029052123493646404,0.0,0.0
2021-02-05 11:00:40+01:00,1.3100703060861079,-0.5635469414453954,0.5172540787743286,-0.064187189778892,0.06520791812580809,0.0,0.0
2021-02-05 11:00:50+01:00,-0.44147027163996094,-0.658757687966223,0.22443292818576166,0.023842390930986626,-0.10934214120659107,0.0,26.557499999999706
2021-02-05 11:01:00+01:00,-0.40698167126111195,-0.661225361888463,0.17735914828101745,-0.04545734324549887,0.25109521176201843,26.557499999999706,26.557499999999706
2021-02-05 11:01:10+01:00,0.22937715417293775,-0.4189450885057655,-0.8944630347035121,-0.4161135957391333,-0.4043927719763796,26.557499999999706,26.557499999999706
2021-02-05 11:01:20+01:00,-1.000159979610065,-0.4067680903634809,0.8372697149478979,-0.1214037221960748,-0.29390496904218893,26.557499999999706,0.0
2021-02-05 11:01:30+01:00,-0.10659163612298958,-0.6185178370918278,-0.27798368255894346,0.18593808867236486,-0.3512157604491252,0.0,0.0
2021-02-05 11:01:40+01:00,0.44034410486509656,-0.21424555076908433,-0.46711433582505196,-0.3986705520428409,0.4891469366339582,0.0,0.0
2021-02-05 11:01:50+01:00,0.3123601401688005,-0.47652477478653,-0.8334871629489227,0.18401442813923496,-0.3295621452441256,0.0,0.0
2021-02-05 11:02:00+01:00,0.03523469678270096,-0.4146359008011036,-0.6227097802574912,0.6300745284357574,-0.3646893842156474,0.0,0.0
2021-02-05 11:02:10+01:00,0.10546280351684385,-0.15220059601048666,-0.8973019579980491,-0.4161135957391333,-0.4043927719763796,0.0,0.0
2021-02-05 11:02:20+01:00,0.5662601700954135,-0.5726848075405523,-0.5420152210243626,-0.4161135957391333,0.018458292000048764,0.0,0.0
2021-02-05 11:02:30+01:00,1.673097344118818,-0.4146359008011036,1.1362557515375018,-0.24036219932328218,0.04483446580726882,0.0,0.0
2021-02-05 11:02:40+01:00,0.20635647027099985,-0.27198131782302004,-0.8390815999892415,-0.33283520998508387,-0.34007885939580496,0.0,0.0
2021-02-05 11:02:50+01:00,-0.012300576160617503,0.28660318490320497,-0.7541086383380571,6.049938946059668,-0.29721118180377143,0.0,26.557499999999706
2021-02-05 11:03:00+01:00,0.11459611955836517,-0.5572904837791871,-0.6342992596183119,-0.4074180387356573,-0.1686661685983337,26.557499999999706,0.0
2021-02-05 11:03:10+01:00,0.4528143843786152,-0.6508854108797127,-0.7578152351809502,-0.4161135957391333,-0.4043927719763796,0.0,0.0
2021-02-05 11:03:20+01:00,0.34029903662772015,2.249833385702198,1.1313922442748108,-0.4093173986300915,-0.3377669560158963,0.0,-26.557499999999706
2021-02-05 11:03:30+01:00,0.17277878548850312,0.11509548300840104,-0.6132579583081134,-0.4161135957391333,1.6877671162302483,-26.557499999999706,0.0
2021-02-05 11:03:40+01:00,0.2338835507895246,-0.35698016076901073,-0.8601443031896108,4.6708955054693995,-0.12977079700423055,0.0,0.0
2021-02-05 11:03:50+01:00,5.740383788894144,-0.6710080997606698,6.712194367950801,-0.4080748022740223,-0.30470725374208624,0.0,0.0
2021-02-05 11:04:00+01:00,1.2318795629537462,0.2073144198162607,0.9509565332959551,-0.4161135957391333,-0.37911639645439094,0.0,0.0
2021-02-05 11:04:10+01:00,0.049459643205321965,-0.13819638156118513,-0.8380638055621514,-0.25712537448564127,-0.3657668154578458,0.0,0.0
2021-02-05 11:04:20+01:00,0.2491061177925147,-0.6519876391598333,-0.7578152351809502,0.0528616190712429,-0.3166503654296461,0.0,0.0
2021-02-05 11:04:30+01:00,0.2066940645453729,-0.38430362827340403,-0.8868200950256124,-0.4161135957391333,-0.371365003372442,0.0,0.0
2021-02-05 11:04:40+01:00,0.25173993029295305,-0.2455279860638965,-0.7561630381712148,-0.3645216594249422,0.6549924434722664,0.0,0.0
2021-02-05 11:04:50+01:00,0.31173551861616927,-0.5091483804577687,-0.8574098206743159,4.937904945241627,-0.38089723077761084,0.0,0.0
2021-02-05 11:05:00+01:00,1.2308318257927637,-0.1989140802632165,0.6625980104017297,-0.4161135957391333,-0.2527542988559973,0.0,0.0
2021-02-05 11:05:10+01:00,0.07674631968737161,2.223652661240279,0.7398614100033603,-0.4109807321082584,-0.40252761659574965,0.0,0.0
2021-02-05 11:05:20+01:00,-1.016987809129131,2.1407933273652997,-0.8667647188228488,0.2305662116369365,1.9583452645632504,0.0,0.0
2021-02-05 11:05:30+01:00,-2.2209958662773355,-0.25338782371695967,2.4569697113857947,-0.15352451323793886,-0.3855290007437128,0.0,0.0
2021-02-05 11:05:40+01:00,-1.4415326879954447,-0.18567217214115253,1.3058685926343745,-0.37838666027605317,-0.24103633975222172,0.0,0.0
2021-02-05 11:05:50+01:00,-1.6430116256761307,3.4290334420907977,-0.8431163418506362,-0.4161135957391333,3.5030051854242865,0.0,0.0
2021-02-05 11:06:00+01:00,0.20572693604696982,1.247147205092939,0.23282449293461727,-0.31099562493626653,-0.15895939741277348,0.0,0.0
2021-02-05 11:06:10+01:00,0.3569354159904443,-0.6183959201466342,-0.870582016887052,-0.4161135957391333,-0.25715698179460095,0.0,0.0
2021-02-05 11:06:20+01:00,0.3301294192653011,-0.6193354385377848,-0.8955573332894394,-0.4161135957391333,-0.2531241904616253,0.0,0.0
2021-02-05 11:06:30+01:00,0.3193030358718814,-0.5102699764633828,-0.8474905412640966,-0.4161135957391333,-0.3801393518200938,0.0,0.0
2021-02-05 11:06:40+01:00,0.19031898902212732,-0.5580301629344456,-0.7409578366022982,-0.32788256531964205,-0.4007078420590566,0.0,0.0
2021-02-05 11:06:50+01:00,2.3436037739728297,-0.2148564476715759,2.2263979488016954,-0.34692007991290397,-0.17186404941655156,0.0,0.0
2021-02-05 11:07:00+01:00,0.09173008791378394,-0.3769554397392668,-0.7292850922499987,-0.38398010502837643,-0.3667716750772877,0.0,0.0
2021-02-05 11:07:10+01:00,0.09281587994724395,-0.07840762510752118,-0.8630908364036909,-0.37302310215096507,0.1157414550713727,0.0,0.0
2021-02-05 11:07:20+01:00,0.4329550909387564,-0.39763917856092346,-0.6070842209538156,-0.4161135957391333,-0.3602709365539422,0.0,0.0
2021-02-05 11:07:30+01:00,0.46483419339815757,-0.6749769718594913,-0.7578152351809502,-0.3815401205523221,-0.4043927719763796,0.0,0.0
2021-02-05 11:07:40+01:00,-0.0440972630580441,-0.41495313259753447,-0.5101963815115698,-0.4161135957391333,-0.4043927719763796,0.0,0.0
2021-02-05 11:07:50+01:00,-0.5642494914343296,-0.4083127373291236,0.22135680493286045,0.18635414016599056,-0.3464540460474747,0.0,0.0
2021-02-05 11:08:00+01:00,0.5459796177017994,-0.6329189481986826,-0.6132579583081134,2.8990756066632315,-0.27180212659940567,0.0,0.0
2021-02-05 11:08:10+01:00,-0.5784825924724815,-0.47235919168064955,0.2867319845879238,0.10353229619849996,-0.1993685731741759,0.0,0.0
2021-02-05 11:08:20+01:00,0.15653709842103714,-0.6711491062499337,-0.6132579583081134,-0.4161135957391333,-0.3739678400012476,0.0,0.0
2021-02-05 11:08:30+01:00,0.6665337011210888,-0.6808972289054385,-0.4765031789874722,-0.4161135957391333,-0.2759540156994709,0.0,0.0
2021-02-05 11:08:40+01:00,-1.931692567785908,-0.6772408070317945,2.346800983484992,-0.4161135957391333,-0.4043927719763796,0.0,0.0
2021-02-05 11:08:50+01:00,-1.3430709428493153,2.74556537299863,-0.9012292938027273,-0.4161135957391333,1.778838196900454,0.0,0.0
2021-02-05 11:09:00+01:00,-0.17372686268776996,-0.00919396656843874,-0.6132579583081134,-0.37883082554051034,-0.007322756773025271,0.0,26.557499999999706
2021-02-05 11:09:10+01:00,-0.5998174104331536,-0.3893373368701198,0.2583006595288038,4.114438379130812,-0.23967810780110282,26.557499999999706,0.0
2021-02-05 11:09:20+01:00,0.2290255053637046,-0.21424555076908433,-0.7662224491816766,-0.4161135957391333,-0.4043927719763796,0.0,-26.557499999999706
2021-02-05 11:09:30+01:00,0.3821365272915593,-0.43469120679320256,-0.705180548110928,-0.3952738914915407,0.09053631723403185,-26.557499999999706,0.0
2021-02-05 11:09:40+01:00,1.0391700893876947,0.09794132582887714,0.6009500029086342,-0.4161135957391333,-0.3847484448383497,0.0,0.0
2021-02-05 11:09:50+01:00,0.5329006330624951,-0.6088932584804063,-0.6148036722037462,-0.35875804557239105,0.10703194410027198,0.0,0.0
2021-02-05 11:10:00+01:00,-1.7509734952970697,-0.6570920425789535,2.076775659235401,1.634899087789148,-0.14547141023186982,0.0,0.0
2021-02-05 11:10:10+01:00,-0.6683728363542253,-0.4724778439306515,0.41404973128059036,-0.4161135957391333,-0.3912473508810611,0.0,0.0
2021-02-05 11:10:20+01:00,0.2293796524077536,-0.6701852286137926,-0.7170426699091245,-0.4161135957391333,-0.4043927719763796,0.0,0.0
2021-02-05 11:10:30+01:00,1.8015960682658285,-0.672188649233152,1.1362557515375018,-0.37911086454973447,-0.21961792882624884,0.0,0.0
2021-02-05 11:10:40+01:00,0.3858543589690948,-0.4714321494638889,-0.7258643703952105,-0.37289232464458033,-0.3030749177208344,0.0,0.0
2021-02-05 11:10:50+01:00,0.1542449286970947,-0.4692497007283074,-0.7525933815486824,-0.4161135957391333,-0.38825530075523634,0.0,0.0
2021-02-05 11:11:00+01:00,-0.5389625969297587,-0.4053358024492313,0.18346251589425278,-0.341881478201012,0.2036620568856435,0.0,0.0
2021-02-05 11:11:10+01:00,-0.404656812370287,-0.6652132290546454,0.17688465940596496,-0.4161135957391333,-0.3669151879540013,0.0,0.0
2021-02-05 11:11:20+01:00,0.3495574686682254,-0.6650026457173753,-0.7653125389622958,-0.4161135957391333,-0.4017696298452541,0.0,0.0
2021-02-05 11:11:30+01:00,2.1939677809616214,-0.3731711226441861,1.9027970289933036,-0.37426867145751297,0.08888712508577147,0.0,0.0
2021-02-05 11:11:40+01:00,0.48664087397042716,1.8491306131775638,1.0555565701781102,-0.4161135957391333,2.439378545332831,0.0,0.0
2021-02-05 11:11:50+01:00,-0.5911564624113212,1.2983198325834884,-0.8589758356008571,0.003977232776191329,0.08625624880844084,0.0,0.0
2021-02-05 11:12:00+01:00,0.5206647660118053,-0.6236446262424467,-0.64254007336697,-0.07454898858165541,0.3241361920950624,0.0,0.0
2021-02-05 11:12:10+01:00,0.6518451933493089,2.4035253467602185,1.6809022354083656,-0.16130491852883383,-0.35844695809108873,0.0,0.0
2021-02-05 11:12:20+01:00,-0.18940210774443209,0.21578915913456662,-0.7499520346922587,-0.2680231768709111,-0.06617881442285249,0.0,0.0
2021-02-05 11:12:30+01:00,0.07501129822647484,-0.09971353505236323,-0.9014068546178893,-0.4045196382216554,-0.3542965376703551,0.0,-26.557499999999706
2021-02-05 11:12:40+01:00,-0.7606721903938062,1.9801448099784804,-0.6174149474399835,-0.4161135957391333,0.2179711975024273,-26.557499999999706,0.0
2021-02-05 11:12:50+01:00,0.11966538890477693,-0.25190050836800154,-0.8571385978635309,-0.19123005638344387,-0.26881056154198396,0.0,0.0
2021-02-05 11:13:00+01:00,0.9034170307866477,0.7859802936090563,0.8946880877175991,-0.34003789344273294,0.426479467480693,0.0,0.0
2021-02-05 11:13:10+01:00,0.2509992193822292,-0.09751314099064023,-0.6526844951760236,4.129640981494594,-0.4043927719763796,0.0,0.0
2021-02-05 11:13:20+01:00,3.0994910291182283,-0.6812225647040814,2.966964303698728,1.9612773468664386,-0.37128287859696835,0.0,26.557499999999706
2021-02-05 11:13:30+01:00,-0.5474549271949967,-0.4977369428405009,0.26073586400180976,-0.38759799187290866,-0.3545729592895252,26.557499999999706,0.0
2021-02-05 11:13:40+01:00,-0.5630726159591879,1.1472015798082549,-0.8788015214104604,-0.3999562561808516,-0.30102892614469473,0.0,0.0
2021-02-05 11:13:50+01:00,-3.1448757143946917,2.836981037328174,1.0309701202637045,-0.3714797853910371,-0.4043927719763796,0.0,0.0
2021-02-05 11:14:00+01:00,1.1031576605444935,0.6880722055333542,1.108266360313363,-0.4161135957391333,-0.4043927719763796,0.0,-26.557499999999706
2021-02-05 11:14:10+01:00,1.0243901708373864,-0.3664580275476421,0.2520746257996496,-0.4161135957391333,1.097379947289396,-26.557499999999706,0.0
2021-02-05 11:14:20+01:00,0.8303102845401155,-0.11401299971696635,0.15564160432301094,-0.4161135957391333,-0.4043927719763796,0.0,0.0
2021-02-05 11:14:30+01:00,0.16164171229083382,-0.47668085555970124,-0.7578152351809502,-0.4161135957391333,-0.4043927719763796,0.0,0.0
2021-02-05 11:14:40+01:00,-1.569120894587709,3.2492665442422184,-0.8654787187548038,-0.35075576769468175,-0.386783737961376,0.0,0.0
2021-02-05 11:14:50+01:00,1.8283161272845243,-0.6134103001951685,1.2155851340874244,-0.4161135957391333,-0.4043927719763796,0.0,0.0
2021-02-05 11:15:00+01:00,-1.020259396886058,2.1426120145249112,-0.870111101171356,-0.4161135957391333,-0.4043927719763796,0.0,-26.557499999999706
2021-02-05 11:15:10+01:00,-0.38848073408172634,0.8590861563970191,-0.882284684595664,-0.4024748945858757,-0.054059501637857194,-26.557499999999706,-26.557499999999706
2021-02-05 11:15:20+01:00,-0.4617042741152459,1.0037594652214374,-0.8837607700696031,1.1996203600890385,-0.29850298633190675,-26.557499999999706,0.0
2021-02-05 11:15:30+01:00,1.6253847593522501,-0.580984565495036,0.9512474270161853,-0.4161135957391333,-0.4043927719763796,0.0,0.0
2021-02-05 11:15:40+01:00,0.2283186358455645,-0.3769554397392668,-0.8821274804103633,-0.4161135957391333,-0.3548537330502012,0.0,0.0
2021-02-05 11:15:50+01:00,1.272896433235787,0.1584817074928735,0.9745280243298554,0.16555062835900847,-0.2562589450168253,0.0,0.0
2021-02-05 11:16:00+01:00,-0.5608892530031675,-0.6186865357544533,0.36516499711673267,2.0758709833413342,-0.27706433727422575,0.0,26.557499999999706
2021-02-05 11:16:10+01:00,0.15772761729595902,-0.5292188972001333,-0.7151731106473281,3.918901512558867,-0.3094574612432848,26.557499999999706,0.0
2021-02-05 11:16:20+01:00,-0.0012430562915331112,-0.2103542388002405,-0.7153400038767762,-0.4161135957391333,0.4522940263959496,0.0,0.0
2021-02-05 11:16:30+01:00,-0.32876685184898446,-0.6596388512430001,0.06553063596674147,-0.4161135957391333,-0.4043927719763796,0.0,-44.24250000000029
2021-02-05 11:16:40+01:00,2.086382372282913,-0.3769554397392668,1.7478442306148887,-0.4161135957391333,0.6221908245371638,-44.24250000000029,0.0
2021-02-05 11:16:50+01:00,0.4664048236758275,-0.42436777871124187,-0.5786137764716157,2.5693183631641174,-0.29978212518507164,0.0,0.0
2021-02-05 11:17:00+01:00,-0.020979574845537346,-0.6791516457243297,-0.3563430005293219,0.8086127427786209,0.7523550634428466,0.0,0.0
2021-02-05 11:17:10+01:00,0.0584651381361564,-0.47458137312137627,-0.6132579583081134,-0.4161135957391333,0.4271819408472753,0.0,-26.557499999999706
2021-02-05 11:17:20+01:00,-1.1083105680886953,2.302614048781909,-0.8817497300063135,-0.4161135957391333,-0.21435881719955982,-26.557499999999706,-26.557499999999706
2021-02-05 11:17:30+01:00,0.36435874005573315,-0.6730426976942382,-0.8986659152108939,-0.4161135957391333,-0.4043927719763796,-26.557499999999706,0.0
2021-02-05 11:17:40+01:00,0.7254336066006778,0.855648967728291,0.6919633014937406,-0.4161135957391333,0.13311292683594544,0.0,0.0
2021-02-05 11:17:50+01:00,-0.6059965664236548,1.4809576414488244,-0.7510036147495717,-0.32913976791067195,0.369304495226632,0.0,-26.557499999999706
2021-02-05 11:18:00+01:00,0.18791255778904556,1.755341462956669,0.566492337025271,-0.37577120709239586,-0.14310493665660948,-26.557499999999706,0.0
2021-02-05 11:18:10+01:00,-1.2704416213220833,0.7347156248084112,0.4137290550547274,0.8844335792008289,0.946547240157217,0.0,0.0
2021-02-05 11:18:20+01:00,-0.5415086595869649,-0.46355909032017034,0.22818315538009273,-0.4161135957391333,-0.1587086305224798,0.0,0.0
2021-02-05 11:18:30+01:00,-0.10756001373880071,0.5668039846671495,-0.6910666464910928,-0.4161135957391333,-0.3731556872790698,0.0,0.0
2021-02-05 11:18:40+01:00,1.3936187075644226,-0.4820917886635229,0.6930345747000802,0.9351845259910115,0.04915750320890366,0.0,0.0
2021-02-05 11:18:50+01:00,-0.06245958748557294,-0.1895383952948583,-0.6433918678544512,-0.4161135957391333,-0.39648330049150093,0.0,0.0
2021-02-05 11:19:00+01:00,-2.1764168221539095,2.34336150202283,0.5600660136291142,-0.4161135957391333,-0.26596462479847843,0.0,0.0
2021-02-05 11:19:10+01:00,-0.8731753874009428,2.049618389692134,-0.7275943874056624,-0.23287450039582505,-0.18608637626329827,0.0,0.0
2021-02-05 11:19:20+01:00,0.312184758323601,-0.32152131953634844,-0.7242731283705564,-0.4161135957391333,4.938521158413745,0.0,0.0
2021-02-05 11:19:30+01:00,-1.770232350830549,2.1963161034628826,0.08897993903571616,1.361685294255898,-0.4043927719763796,0.0,0.0
2021-02-05 11:19:40+01:00,-0.08796688967331312,2.225217478983448,0.5078253415100883,-0.4161135957391333,5.850441564023726,0.0,0.0
2021-02-05 11:19:50+01:00,1.0457045341731672,-0.19808383468427482,0.4011483501529866,4.419060748178197,-0.36960421854321795,0.0,0.0
2021-02-05 11:20:00+01:00,-1.3582071191116616,1.3390388220912517,0.11118706142452238,0.3383114304813381,-0.35289239938452927,0.0,0.0
2021-02-05 11:20:10+01:00,0.09176647467768943,-0.3624372719890634,-0.739589216490625,-0.4074890340856764,-0.3576817626851579,0.0,0.0
2021-02-05 11:20:20+01:00,1.193414828082096,-0.4243617531966438,0.450427162279987,-0.41161959331439285,-0.40268333702727527,0.0,0.0
2021-02-05 11:20:30+01:00,0.30045243747259726,-0.20356443386410628,-0.6575792193973252,-0.4118157434166304,-0.16004204314030546,0.0,0.0
2021-02-05 11:20:40+01:00,0.05296587910760757,-0.46355909032017034,-0.6132579583081134,1.631067536286297,-0.38139325364217375,0.0,0.0
2021-02-05 11:20:50+01:00,-1.6931438529909222,-0.6809392815386781,2.011762198953041,0.7309447669834308,-0.4043927719763796,0.0,0.0
2021-02-05 11:21:00+01:00,-0.6555874885787923,-0.6740946066290182,0.538333124360178,-0.4161135957391333,-0.4002289717521931,0.0,0.0
2021-02-05 11:21:10+01:00,-0.7592880949823847,-0.6036570600512203,0.6353723078581164,-0.3740264729375344,-0.3792490896108904,0.0,0.0
2021-02-05 11:21:20+01:00,-0.8635383339950168,-0.33187824486061257,0.5910037691261734,-0.15958878286499054,-0.3936419180013358,0.0,0.0
2021-02-05 11:21:30+01:00,0.4038294334319176,-0.679247854507066,-0.8471796801066735,-0.4161135957391333,-0.21515850635860181,0.0,0.0
2021-02-05 11:21:40+01:00,1.3334963691766826,-0.17072519035162734,0.8278199612795587,2.832593163156165,-0.09537540498592464,0.0,0.0
2021-02-05 11:21:50+01:00,-0.1894477437382846,-0.33260520115229486,-0.36261545938393325,0.7837099200376278,-0.4043927719763796,0.0,0.0
2021-02-05 11:22:00+01:00,-0.8929232553781041,-0.6809610531715636,0.8791159256480424,1.725908922095231,-0.324480326118779,0.0,26.557499999999706
2021-02-05 11:22:10+01:00,0.12215565241370677,-0.41672981436226086,-0.7442621898492038,-0.2976658844300424,-0.3805165464000133,26.557499999999706,0.0
2021-02-05 11:22:20+01:00,-1.156295842779625,2.518168755766411,-0.7974467357344819,3.0426204811935222,-0.3727460874349971,0.0,0.0
2021-02-05 11:22:30+01:00,-1.267432596996822,2.6201580487487974,-0.8827297097324124,-0.4161135957391333,-0.38957123743642713,0.0,0.0
2021-02-05 11:22:40+01:00,-0.20061156690308568,2.6111181287580956,0.6209040666998912,-0.4161135957391333,4.790045519919454,0.0,0.0
2021-02-05 11:22:50+01:00,0.3361086012479663,1.5676992857616925,0.6437429674007781,-0.1412198589826503,2.3548324431320045,0.0,26.557499999999706
2021-02-05 11:23:00+01:00,-0.7637933000928487,-0.2477370089984411,0.39040107260701773,1.078200990888388,-0.15901714750099008,26.557499999999706,0.0
2021-02-05 11:23:10+01:00,-0.6501784540600388,-0.3287669273585492,0.2868091633473866,1.9144069729473265,-0.3999852787761116,0.0,0.0
2021-02-05 11:23:20+01:00,0.07374250918340815,-0.10943938744790357,-0.892742640018464,-0.4161135957391333,-0.4043927719763796,0.0,0.0
2021-02-05 11:23:30+01:00,0.4501201795392643,1.2826080355852116,0.6037898454391886,-0.4161135957391333,-0.39968075013780485,0.0,0.0
2021-02-05 11:23:40+01:00,-0.41092986689935324,1.069147221167042,-0.76571646535325,-0.4161135957391333,-0.31743850726586914,0.0,0.0
2021-02-05 11:23:50+01:00,0.8365107724182579,0.4452428964982106,0.5593603183627927,-0.2908112946958369,-0.2781053210155781,0.0,0.0
2021-02-05 11:24:00+01:00,-0.8188590959907857,-0.25983770145150475,0.47688864239312934,0.8990938443049983,-0.30467612851955234,0.0,0.0
2021-02-05 11:24:10+01:00,-0.27012194701054926,0.40825196845359296,-0.7716139982306058,-0.4161135957391333,0.12267786586545883,0.0,0.0
2021-02-05 11:24:20+01:00,-0.5009649691199934,1.0284437678293223,-0.8828450923855348,-0.31649761914668995,0.8101574043057393,0.0,0.0
2021-02-05 11:24:30+01:00,0.435568275980448,3.237644491795445,1.963824615187045,-0.4161135957391333,-0.4043927719763796,0.0,0.0
2021-02-05 11:24:40+01:00,-0.19653635147475856,1.0079546300348736,-0.5054697514570934,-0.12805418010230096,-0.3792794737566973,0.0,0.0
2021-02-05 11:24:50+01:00,-0.08697034013910726,-0.6359735009443198,-0.29342932735846183,-0.363963261769808,0.6416180027200611,0.0,0.0
2021-02-05 11:25:00+01:00,0.9577690438122375,-0.6288485976162045,-0.027521617062478368,0.3285522035000613,3.6168138609651317,0.0,0.0
2021-02-05 11:25:10+01:00,-2.0368861392175184,-0.6813356585743278,2.498587584600627,-0.4161135957391333,-0.4043927719763796,0.0,26.557499999999706
2021-02-05 11:25:20+01:00,0.20924723695889458,-0.47615598495012,-0.8255685043582677,4.828829169484603,-0.3368220562407297,26.557499999999706,0.0
2021-02-05 11:25:30+01:00,-0.04111134871417636,-0.15220059601048666,-0.699976623287589,-0.39208553136182583,-0.3868265991444411,0.0,0.0
2021-02-05 11:25:40+01:00,0.3322776838552455,-0.6797581862007619,-0.8559279751488829,-0.4161135957391333,-0.3396524438470906,0.0,0.0
2021-02-05 11:25:50+01:00,0.2502990380105457,-0.20614006317332495,-0.7303870746111814,-0.31714665947674614,0.9359216550972805,0.0,0.0
2021-02-05 11:26:00+01:00,-2.5272464067695917,3.7173137011169732,0.08636837468492507,-0.4161135957391333,-0.38153642966582973,0.0,0.0
2021-02-05 11:26:10+01:00,1.1265914566407405,-0.2893020479392008,0.4512210560181855,-0.4161135957391333,4.846931782154799,0.0,0.0
2021-02-05 11:26:20+01:00,-0.3596478440320935,1.2102233397661075,-0.5935031092707748,-0.4161135957391333,-0.37774549882830144,0.0,0.0
2021-02-05 11:26:30+01:00,0.8233586476338739,-0.2319809286668342,0.06249393607786116,-0.4161135957391333,-0.3920149042583961,0.0,0.0
2021-02-05 11:26:40+01:00,-0.1597761669315975,2.7859456687507365,0.8021658891567035,-0.4161135957391333,-0.2500746327817855,0.0,0.0
2021-02-05 11:26:50+01:00,1.3576871775586308,-0.21764320618349872,0.8289273700985191,-0.23859351999119532,-0.25665392543819265,0.0,0.0
2021-02-05 11:27:00+01:00,-0.4431600001560205,-0.6053392388626916,0.18910092429291875,-0.2729132603175833,0.09549034778339952,0.0,0.0
2021-02-05 11:27:10+01:00,-1.9958291191071793,1.8322411272516275,0.6654049124061411,0.164099214546488,-0.3708130090038072,0.0,0.0
2021-02-05 11:27:20+01:00,0.2782058502210759,1.8167469993438505,0.7376609109490428,-0.3730930634312524,0.5642373309702082,0.0,0.0
2021-02-05 11:27:30+01:00,1.0732729717382814,-0.6736947654473454,0.10429686114007432,-0.4161135957391333,-0.3926492389884614,0.0,0.0
2021-02-05 11:27:40+01:00,-0.7719731415105263,-0.3092347546543137,0.44540836714256316,2.7520267545322947,-0.3586875250707945,0.0,0.0
2021-02-05 11:27:50+01:00,-0.9591282403790891,-0.4946366528699448,0.8412440022147852,-0.4161135957391333,-0.1538953641288749,0.0,0.0
2021-02-05 11:28:00+01:00,1.704617237597169,-0.5166652151674704,1.1088178314982458,-0.4161135957391333,-0.3941332518713353,0.0,0.0
2021-02-05 11:28:10+01:00,2.5411583487564267,-0.6286136287904133,2.2138317404002072,-0.008725021290947375,-0.2963452269112136,0.0,0.0
2021-02-05 11:28:20+01:00,0.3419098926758367,-0.6206967009611459,-0.8934744890321091,-0.3941300487948517,-0.3464540460474747,0.0,0.0
2021-02-05 11:28:30+01:00,1.1582496145845431,-0.585964831766284,0.28653014556344075,-0.4161135957391333,-0.3367852045162144,0.0,0.0
2021-02-05 11:28:40+01:00,0.8789485229172317,-0.5831666258263664,-0.03746898877017007,-0.22381899018166956,-0.14297085566551215,0.0,26.557499999999706
2021-02-05 11:28:50+01:00,-0.1032799640051341,-0.6131448731279032,-0.2864654918211329,0.4223812673563104,-0.4043927719763796,26.557499999999706,0.0
2021-02-05 11:29:00+01:00,-2.3527881254621867,3.8457642723995122,-0.25127711855595214,-0.4056759543844833,-0.2963930061489215,0.0,0.0
2021-02-05 11:29:10+01:00,0.8177893751818074,0.5681199455081976,0.6196362141299888,-0.38151478584389475,0.3696640252322044,0.0,0.0
2021-02-05 11:29:20+01:00,0.5415829496336955,-0.2377607565811879,-0.3404234154310839,-0.4161135957391333,-0.4043927719763796,0.0,0.0
2021-02-05 11:29:30+01:00,-1.983486495726577,1.2750325045952404,1.0414312559465957,-0.4161135957391333,-0.4043927719763796,0.0,0.0
2021-02-05 11:29:40+01:00,-1.777733183023803,0.17178340362607494,1.5293066871204009,-0.09439740773266835,-0.32616977894449894,0.0,0.0
2021-02-05 11:29:50+01:00,0.6080363963949799,0.35442558991229495,0.17183478816061035,-0.40310900553418,-0.2974936128814914,0.0,0.0
2021-02-05 11:30:00+01:00,-0.6148146989806919,-0.4008247075184756,0.28764066792374965,3.6208562470961128,-0.21708820278509208,0.0,0.0
2021-02-05 11:30:10+01:00,-0.6696743826502389,-0.15689313346226844,0.19302843430764863,-0.4161135957391333,-0.2356994689656872,0.0,0.0
2021-02-05 11:30:20+01:00,1.4196786093423834,-0.631197750506095,0.6246232066665005,-0.4161135957391333,-0.35929023603580046,0.0,0.0
2021-02-05 11:30:30+01:00,-0.9103362270073658,3.840280754939091,0.4843591141199291,-0.4161135957391333,-0.39568036406898244,0.0,0.0
2021-02-05 11:30:40+01:00,1.8647717602439897,-0.5711813471716435,1.2970075466228015,0.0028431491125954812,-0.3735555588068354,0.0,0.0
2021-02-05 11:30:50+01:00,-0.10016678109517704,-0.569872272632993,-0.3214307909685178,3.8083727395700437,-0.3924145063037155,0.0,26.557499999999706
2021-02-05 11:31:00+01:00,-1.252427468077126,-0.2650698321334666,1.094272144705585,0.17170111354994316,0.28834238829291203,26.557499999999706,44.24250000000029
2021-02-05 11:31:10+01:00,-0.2568623902730004,-0.6059399637727695,-0.07416733321762749,-0.28838068147672635,-0.22512202694476097,44.24250000000029,0.0
2021-02-05 11:31:20+01:00,0.29075619632735555,-0.5668483775796613,-0.8768929946960545,-0.3761072151258499,-0.14457039567306382,0.0,0.0
2021-02-05 11:31:30+01:00,0.09919928103676032,-0.6485297128533207,-0.54807354977936,-0.4161135957391333,-0.39708114729835337,0.0,0.0
2021-02-05 11:31:40+01:00,-0.3977242866985169,-0.6568287464863631,0.16115104909772204,1.5226266147151948,-0.4043927719763796,0.0,26.557499999999706
2021-02-05 11:31:50+01:00,-1.4351665938596996,-0.6795641887747546,1.645640623496166,2.249608432010604,-0.3591060717320804,26.557499999999706,0.0
2021-02-05 11:32:00+01:00,1.0575903681493002,-0.3664580275476421,0.2990674054435862,-0.2482752886866298,0.15678248632433553,0.0,-26.557499999999706
2021-02-05 11:32:10+01:00,0.4732663905752657,-0.47668085555970124,-0.605844764622327,-0.4161135957391333,-0.4043927719763796,-26.557499999999706,0.0
2021-02-05 11:32:20+01:00,-0.071220223980119,-0.42354872337369637,-0.46573540396096197,0.42416384200041746,-0.3508909532567433,0.0,0.0
2021-02-05 11:32:30+01:00,1.12373458110063,-0.5455573109756583,0.266211786314674,-0.4161135957391333,-0.33733343960472495,0.0,0.0
2021-02-05 11:32:40+01:00,-0.06440518866814657,0.2770796333867155,-0.8345848827237361,-0.38801035949311513,-0.1320819188850453,0.0,0.0
2021-02-05 11:32:50+01:00,1.1324403821265772,-0.6714039309308854,0.18966235881011495,0.3819242262280674,-0.22281399063795493,0.0,0.0
2021-02-05 11:33:00+01:00,1.2847695089309736,-0.41644309854307104,0.5853260300284073,-0.4161135957391333,-0.3849777609259274,0.0,0.0
2021-02-05 11:33:10+01:00,1.1867003715990612,-0.6078985079550097,0.311310995362466,0.02147501753890719,-0.22963405238590248,0.0,0.0
2021-02-05 11:33:20+01:00,0.39470554731028284,-0.47668085555970124,-0.7170426699091245,0.2829880535401992,-0.289006815678037,0.0,-26.557499999999706
2021-02-05 11:33:30+01:00,-1.622771435225091,3.335063977820687,-0.8808281625398617,-0.4161135957391333,-0.38957123743642713,-26.557499999999706,0.0
2021-02-05 11:33:40+01:00,0.06992342043498836,1.5846286880974882,0.27893009491761045,-0.4161135957391333,0.6780143692718719,0.0,0.0
2021-02-05 11:33:50+01:00,0.052096003695776945,-0.13176604475943482,-0.8463364626842871,-0.15759616280662586,-0.2759521562705923,0.0,0.0
2021-02-05 11:34:00+01:00,-1.8684286624555393,2.0072634992145457,0.3614781379020278,-0.4161135957391333,-0.3491194430261613,0.0,0.0
2021-02-05 11:34:10+01:00,-1.4542949781633794,1.4806322269195902,0.1472011495617976,8.717748792912447,-0.2637115763848157,0.0,0.0
2021-02-05 11:34:20+01:00,-0.5136824979381303,2.9711196733963936,0.4320023513877838,-0.4161135957391333,-0.4043927719763796,0.0,0.0
2021-02-05 11:34:30+01:00,-1.183936153041548,-0.6389531494052636,1.2613606117292022,0.45001222456703993,-0.4043927719763796,0.0,26.557499999999706
2021-02-05 11:34:40+01:00,0.17496600054453826,-0.5361273648836817,-0.734694243927335,1.470153392472137,-0.3743109046293583,26.557499999999706,0.0
2021-02-05 11:34:50+01:00,0.15974118932012554,-0.048562254049505864,-0.7472857164929043,-0.4161135957391333,-0.36697172537121003,0.0,0.0
2021-02-05 11:35:00+01:00,0.2206745008181108,-0.6179522995074163,-0.7416075807892762,0.26104515846224624,-0.37862025232272717,0.0,0.0
2021-02-05 11:35:10+01:00,0.05834849099607649,0.14882294405865,-0.7514087235449187,-0.3892852705283009,-0.3744711523659798,0.0,-26.557499999999706
2021-02-05 11:35:20+01:00,0.08808334594331883,0.06762922932740993,-0.7666593086855799,2.0832578927846273,0.20034460670605508,-26.557499999999706,-26.557499999999706
2021-02-05 11:35:30+01:00,0.05208358060776194,-0.050763204474075015,-0.9012225477964733,-0.4161135957391333,0.16152115997683758,-26.557499999999706,0.0
2021-02-05 11:35:40+01:00,1.031770723760907,-0.5966989238618872,0.09992693913937079,-0.40687793118890303,-0.035598229386806395,0.0,26.557499999999706
2021-02-05 11:35:50+01:00,0.1910565496430363,-0.34861977501041436,-0.8898858509271441,3.90957866300438,-0.3756535874433326,26.557499999999706,0.0
2021-02-05 11:36:00+01:00,0.04740239920838447,-0.08230743998024033,-0.8746202577758662,-0.4092724165967612,-0.14091392310205755,0.0,0.0
2021-02-05 11:36:10+01:00,1.1309643495789776,-0.6269478889264339,0.21896765121903036,-0.3956089947139794,-0.22709143160969594,0.0,0.0
2021-02-05 11:36:20+01:00,0.010019284789416978,-0.43521607740278373,-0.5724853930362876,-0.39192053261025667,-0.3965221598602402,0.0,0.0
2021-02-05 11:36:30+01:00,0.2626809863305919,-0.47668085555970124,-0.9008299376456802,-0.33909346463087225,-0.3403055345554101,0.0,0.0
2021-02-05 11:36:40+01:00,0.5416897635748934,-0.6243207015772361,-0.6132579583081134,-0.19068122387332814,-0.31775381520202317,0.0,0.0
2021-02-05 11:36:50+01:00,0.25834113870172687,-0.2509864934397707,-0.7506742020749501,-0.4161135957391333,0.14488980827657852,0.0,0.0
2021-02-05 11:37:00+01:00,-0.00846758999902417,-0.34042667076379757,-0.6132579583081134,-0.3881096948167194,-0.36889225939453013,0.0,0.0
2021-02-05 11:37:10+01:00,0.4526956396640201,-0.4942915556928512,-0.6473979058298944,-0.4161135957391333,-0.269034703566595,0.0,0.0
2021-02-05 11:37:20+01:00,1.0882227781121503,-0.4558057436650852,0.27932895809727726,-0.4161135957391333,-0.32707033538314645,0.0,0.0
2021-02-05 11:37:30+01:00,0.009493183771629585,-0.435740948012365,-0.5713700706330673,-0.4161135957391333,0.9730625477514004,0.0,0.0
2021-02-05 11:37:40+01:00,0.4359370039170071,-0.5892153397053024,-0.7381531585559924,-0.33739765490019324,-0.38466737104441623,0.0,0.0
2021-02-05 11:37:50+01:00,0.29107511145189496,-0.21424555076908433,-0.6783951559128789,-0.4161135957391333,0.21541685423981194,0.0,0.0
2021-02-05 11:38:00+01:00,-0.6751343664945447,-0.34211450768044016,0.33155864015666414,-0.4161135957391333,-0.4043927719763796,0.0,0.0
2021-02-05 11:38:10+01:00,-0.427757699037114,-0.49705028611422236,0.09082709562619402,-0.4071162842620668,-0.3397169848929509,0.0,0.0
2021-02-05 11:38:20+01:00,1.070741809454348,-0.5815654450473656,0.1657751954560895,-0.3372266133036293,-0.19652685383095309,0.0,0.0
2021-02-05 11:38:30+01:00,0.18686107065714447,-0.3507119092602051,-0.8824699662520498,-0.10678847143991461,-0.3759525243208811,0.0,0.0
2021-02-05 11:38:40+01:00,0.31887063699055096,-0.6396056842932133,-0.8653065436248546,-0.4161135957391333,-0.4043927719763796,0.0,0.0
2021-02-05 11:38:50+01:00,0.04344755732280284,0.03592189027931729,-0.8522299294249062,-0.4161135957391333,-0.37973065474221573,0.0,0.0
2021-02-05 11:39:00+01:00,-2.336941507782026,-0.6809035798398145,2.9229918519054165,-0.4096506599158206,-0.12573000204260332,0.0,0.0
2021-02-05 11:39:10+01:00,1.0511524824962848,-0.6408444261701799,0.09618537055526462,-0.4161135957391333,-0.35838515229205714,0.0,0.0
2021-02-05 11:39:20+01:00,0.43738457648978685,-0.5934258149944204,-0.7390776171679816,-0.3856334532706963,0.03369548973911291,0.0,26.557499999999706
2021-02-05 11:39:30+01:00,-0.36972084203207595,-0.6785198484741647,0.13683203755872486,-0.4161135957391333,-0.4043927719763796,26.557499999999706,0.0
2021-02-05 11:39:40+01:00,-2.9103504617631852,-0.5861317038791882,3.6676887753120226,-0.3985020956206063,-0.36394654237862734,0.0,0.0
2021-02-05 11:39:50+01:00,-1.254813295419714,-0.2811910649481591,1.1090338260160715,-0.3994363776232243,0.4030466887436399,0.0,-26.557499999999706
2021-02-05 11:40:00+01:00,1.7578352222315337,-0.5267111021684967,1.1770501931438941,-0.11465040666622067,-0.19600686050280236,-26.557499999999706,0.0
2021-02-05 11:40:10+01:00,-1.120213530947355,-0.6315653646323396,1.1659480719623647,-0.1428553695220978,-0.3145771157040752,0.0,0.0
2021-02-05 11:40:20+01:00,0.4991438740751653,-0.5888190781411868,-0.6484079942421481,-0.4161135957391333,-0.4043927719763796,0.0,0.0
2021-02-05 11:40:30+01:00,1.8475762293167168,-0.679694372432049,1.1960372762441804,-0.4068738918540135,-0.4009557254871762,0.0,0.0
2021-02-05 11:40:40+01:00,1.078700310933516,-0.5879286404007383,0.1725463101971689,-0.24009434294808502,-0.24442680620060278,0.0,0.0
2021-02-05 11:40:50+01:00,0.5001699546303545,-0.5895771802548416,-0.6474910081293942,-0.3974418509987918,-0.17025933534603319,0.0,0.0
2021-02-05 11:41:00+01:00,0.4552698637648421,-0.5928225077209432,-0.7133360730662313,-0.3881066895515616,-0.27646108734432734,0.0,0.0
2021-02-05 11:41:10+01:00,-1.1502976202672475,-0.05064943876944834,0.7982917318969303,-0.32843963807293247,-0.36793225512825517,0.0,0.0
2021-02-05 11:41:20+01:00,0.060542781765395084,-0.11189965544584247,-0.8723218378461534,-0.4161135957391333,-0.4043927719763796,0.0,-26.557499999999706
2021-02-05 11:41:30+01:00,1.7488607300281467,-0.6723605233629655,1.0614908391367759,-0.4161135957391333,3.3130780534891304,-26.557499999999706,0.0
2021-02-05 11:41:40+01:00,-1.3051297060128455,-0.6496468474587535,1.4404542307099895,-0.34245267246907635,-0.2547960999800989,0.0,0.0
2021-02-05 11:41:50+01:00,0.27677575743592286,-0.6077210754454407,-0.828240575195922,-0.4161135957391333,-0.06835188044648871,0.0,0.0
2021-02-05 11:42:00+01:00,0.4442750275925988,-0.6073615548239959,-0.7391659342509572,-0.30181922550753604,-0.21387318288329712,0.0,0.0
2021-02-05 11:42:10+01:00,0.24230236643632994,-0.21424555076908433,-0.7474298919903025,-0.4161135957391333,-0.3942567691505423,0.0,0.0
2021-02-05 11:42:20+01:00,0.20100020245197242,-0.3996859797361647,-0.8678978921964644,-0.20827805312753633,-0.37967791702749815,0.0,0.0
2021-02-05 11:42:30+01:00,-0.18949132929412804,0.1746155686944326,-0.7207492667520178,-0.38630168852014773,1.0980262066177047,0.0,0.0
2021-02-05 11:42:40+01:00,0.1454699627047371,-0.16709110172242095,-0.8511899176563399,3.2382579433615573,-0.37070746620376044,0.0,0.0
2021-02-05 11:42:50+01:00,-3.4051595565459007,-0.4614388125082939,4.280002572379417,-0.4161135957391333,-0.2226328041152652,0.0,0.0
2021-02-05 11:43:00+01:00,0.26904309743158344,-0.6068815554028277,-0.8178883467414686,-0.4161135957391333,-0.4043927719763796,0.0,0.0
2021-02-05 11:43:10+01:00,0.4599316353985436,-0.5668483775796613,-0.6883948944207668,-0.4161135957391333,0.07300537923193164,0.0,0.0
2021-02-05 11:43:20+01:00,0.5612685057686737,-0.605827027363706,-0.5724853930362876,7.251064646460789,-0.1614395521579553,0.0,0.0
2021-02-05 11:43:30+01:00,-0.9377038473449261,-0.6404404857490461,0.913884701030817,-0.4161135957391333,-0.4043927719763796,0.0,0.0
2021-02-05 11:43:40+01:00,0.2027001360215722,-0.46880761271126936,-0.8214908623450135,-0.40063486444229945,1.2842350601828205,0.0,0.0
2021-02-05 11:43:50+01:00,-3.7676250364335635,-0.43916273172870185,4.777318335052387,-0.4161135957391333,2.4556638007274594,0.0,0.0
2021-02-05 11:44:00+01:00,0.271647863369572,-0.4146359008011036,-0.8474073578177485,-0.4062739698362145,6.364842255598286,0.0,0.0
2021-02-05 11:44:10+01:00,-1.0944034762192296,-0.40376361552270384,0.9685436866610362,-0.39273583196436757,-0.36618192621794293,0.0,0.0
2021-02-05 11:44:20+01:00,0.18213291511088403,-0.4161525984067861,-0.8295638376820287,-0.4161135957391333,-0.39288969817518865,0.0,0.0
2021-02-05 11:44:30+01:00,0.08203293022537073,-0.15220059601048666,-0.8742795622204548,-0.4074692251873779,-0.3929893527837863,0.0,0.0
2021-02-05 11:44:40+01:00,0.29912506299001307,-0.6312804228758101,-0.8432371694945208,0.16555062835900855,-0.27539178099788136,0.0,0.0
2021-02-05 11:44:50+01:00,1.5660430460210024,-0.4385401722012653,0.9678461459077686,-0.4161135957391333,-0.3971448664227528,0.0,0.0
2021-02-05 11:45:00+01:00,-1.5339621178419143,-0.6137457974888129,1.7389989858256563,0.28609320337118893,0.3857618421113919,0.0,44.24250000000029
2021-02-05 11:45:10+01:00,-0.3433334934219969,-0.6404404857490461,0.07259105429800561,-0.3267827675305889,-0.32972223129127937,44.24250000000029,0.0
2021-02-05 11:45:20+01:00,-1.0655654378156683,-0.4751062437309575,0.9781068955521397,-0.4161135957391333,3.0401292546029537,0.0,0.0
2021-02-05 11:45:30+01:00,0.13118153912075795,-0.6308258271921456,-0.605844764622327,-0.4161135957391333,-0.4043927719763796,0.0,0.0
2021-02-05 11:45:40+01:00,0.2092469646146379,-0.20993636306442237,-0.7911746067669896,-0.4104403660440712,-0.11529574951945532,0.0,0.0
2021-02-05 11:45:50+01:00,-1.112974636317715,-0.582003932452022,1.1207019630684953,-0.3999562561808516,1.3463322236352329,0.0,0.0
2021-02-05 11:46:00+01:00,0.4324708576130397,-0.27198131782302004,-0.5190309846612658,2.9535682701483204,0.7515722843073026,0.0,0.0
2021-02-05 11:46:10+01:00,-0.0625889274392296,-0.1081485836551726,-0.7006856693174567,-0.3122754801173572,-0.0522969516986107,0.0,0.0
2021-02-05 11:46:20+01:00,-1.141849226462953,-0.2852719759273019,0.9520222391938364,-0.3776363780563248,-0.24089538695874677,0.0,0.0
2021-02-05 11:46:30+01:00,-1.8070094023867593,-0.3333569838238102,1.9274716736729895,-0.4161135957391333,-0.34481561972293917,0.0,0.0
2021-02-05 11:46:40+01:00,-0.25072884670809875,-0.6062502515310356,-0.08262985334984663,1.0135508866312686,-0.2218086863724769,0.0,0.0
2021-02-05 11:46:50+01:00,0.0977743654111783,-0.21966221545996265,-0.8489196789824235,-0.18626616620966946,1.2559214962252718,0.0,0.0
2021-02-05 11:47:00+01:00,-1.6268797038188745,-0.47405650251179504,1.7718704210032972,-0.4161135957391333,-0.4043927719763796,0.0,0.0
2021-02-05 11:47:10+01:00,-0.5827592745646667,1.582386062946518,-0.646484707859114,-0.4161135957391333,3.084779625947086,0.0,0.0
2021-02-05 11:47:20+01:00,0.6464600334708234,-0.3100467767256908,-0.24302438068525034,-0.05145501231889132,-0.1542267332188213,0.0,0.0
2021-02-05 11:47:30+01:00,0.9263830991903478,-0.27198131782302004,0.18007055723096532,-0.4161135957391333,0.1501482057747851,0.0,0.0
2021-02-05 11:47:40+01:00,1.0951419117788384,-0.6665630755422481,0.1402873086026857,-0.4161135957391333,-0.4043927719763796,0.0,0.0
2021-02-05 11:47:50+01:00,1.516458628703687,-0.27198131782302004,1.0152851516258308,-0.4161135957391333,-0.4043927719763796,0.0,0.0
2021-02-05 11:48:00+01:00,0.3158564774048347,-0.32985264845799844,-0.7249595641596822,-0.4161135957391333,-0.29941569642887705,0.0,-26.557499999999706
2021-02-05 11:48:10+01:00,0.8564233851024406,-0.4493084281248461,-0.044180067762185214,-0.1931646392781152,1.7424896095863502,-26.557499999999706,0.0
2021-02-05 11:48:20+01:00,-0.36966034756406707,-0.6226489099551284,0.09729077410533347,-0.18841476922412975,-0.23244201905274106,0.0,26.557499999999706
2021-02-05 11:48:30+01:00,-0.005114545122410537,-0.1962747054184641,-0.7198030170571892,-0.4161135957391333,1.07466338552368,26.557499999999706,0.0
2021-02-05 11:48:40+01:00,0.2733028575181294,-0.47668085555970124,-0.8888804995456557,-0.4161135957391333,-0.4043927719763796,0.0,0.0
2021-02-05 11:48:50+01:00,-0.7209659847029871,-0.6210874198916242,0.5934389735991793,-0.0015092503882561078,-0.17021381976087324,0.0,26.557499999999706
2021-02-05 11:49:00+01:00,-0.6484947328297942,-0.46719948789410387,0.38218599746683646,-0.4161135957391333,-0.32761076895484004,26.557499999999706,0.0
2021-02-05 11:49:10+01:00,-1.0775962034541515,-0.15650978371514862,0.77014525509859,-0.2660054483068729,-0.08024322455613714,0.0,0.0
2021-02-05 11:49:20+01:00,0.251346649474179,-0.4254303425193963,-0.8837653959024631,1.6289411334563897,-0.33384736078443894,0.0,0.0
2021-02-05 11:49:30+01:00,0.3163478728607624,-0.47668085555970124,-0.8279530025864631,-0.4161135957391333,-0.4043927719763796,0.0,0.0
2021-02-05 11:49:40+01:00,-0.6098614509063085,1.5112613767614809,-0.7350738439232094,-0.2604997055936719,-0.2641642125755435,0.0,-26.557499999999706
2021-02-05 11:49:50+01:00,-0.031946574292317,0.13539956192332314,-0.8886951697035109,-0.396310255565488,0.2379245536356151,-26.557499999999706,0.0
2021-02-05 11:50:00+01:00,0.26884794182213406,-0.21570890577471505,-0.7108897191499217,-0.4161135957391333,-0.25483001434595076,0.0,0.0
2021-02-05 11:50:10+01:00,1.4274294247576014,-0.5999935104346982,0.6576301957972828,-0.40744834990466866,1.3223679581436996,0.0,0.0
2021-02-05 11:50:20+01:00,0.4752517147388889,-0.39841819676837004,-0.5477661617031789,-0.4161135957391333,1.2125019051093373,0.0,0.0
2021-02-05 11:50:30+01:00,0.3677494810436401,-0.6777393501315991,-0.8971832764737366,-0.31962283639341105,-0.40187658742814336,0.0,0.0
2021-02-05 11:50:40+01:00,0.05709763739352715,-0.45537956972492954,-0.6248825169014552,2.299030179104685,-0.4043927719763796,0.0,0.0
2021-02-05 11:50:50+01:00,0.4370734100830881,-0.35690013374716784,-0.5724853930362876,-0.4161135957391333,1.0338163007872334,0.0,0.0
2021-02-05 11:51:00+01:00,-0.024285616769625522,-0.21424555076908433,-0.679976701480192,0.5246047477213484,-0.38898728244967534,0.0,0.0
2021-02-05 11:51:10+01:00,-0.26564250985667603,-0.6521186521126908,-0.029128586177537094,-0.36498295146933113,-0.3718745946781702,0.0,0.0
2021-02-05 11:51:20+01:00,0.8975676784535624,-0.12938919969618284,0.23998163491049668,-0.4161135957391333,-0.39973666774538735,0.0,0.0
2021-02-05 11:51:30+01:00,-0.412922067755457,-0.6813481714896602,0.19997798091414806,-0.4161135957391333,-0.4043927719763796,0.0,0.0
2021-02-05 11:51:40+01:00,-0.4468003891729602,-0.21424555076908433,-0.08193376187594491,-0.4161135957391333,0.342844660593995,0.0,0.0
2021-02-05 11:51:50+01:00,0.5058390936263795,-0.3492556190129793,-0.46975341795080455,-0.3902618524458826,1.3615534410652386,0.0,0.0
2021-02-05 11:52:00+01:00,0.14065035709952664,-0.4175508169697678,-0.7698604888093636,-0.4161135957391333,-0.33836957266204615,0.0,0.0
2021-02-05 11:52:10+01:00,0.09713466803272451,-0.27198131782302004,-0.8110668704690847,-0.2740474732398956,-0.3854354229642765,0.0,0.0
2021-02-05 11:52:20+01:00,0.19457648131899768,-0.41614428445633034,-0.8471827899414248,-0.3762480101827607,-0.4007770855736028,0.0,0.0
2021-02-05 11:52:30+01:00,0.2769118143416787,-0.47668085555970124,-0.8837722494000255,-0.4161135957391333,-0.36070130002049317,0.0,0.0
2021-02-05 11:52:40+01:00,-0.5874429830045026,1.1244510789820745,-0.828240575195922,-0.4161135957391333,-0.4006058160049325,0.0,0.0
2021-02-05 11:52:50+01:00,0.2568645457534451,-0.4007158073643997,-0.8585019434878963,-0.2193963708830976,5.922000148368571,0.0,0.0
2021-02-05 11:53:00+01:00,0.17074068938776396,-0.6611032874820866,-0.6404565248562398,-0.27130156569664465,2.8677461305685403,0.0,0.0
2021-02-05 11:53:10+01:00,0.31272398947699276,-0.6675212215913326,-0.8368926099181214,0.8568842165548685,-0.3801354712728688,0.0,0.0
2021-02-05 11:53:20+01:00,-1.6714512820434952,-0.6768921249884375,1.9781996650874463,-0.4161135957391333,-0.4043927719763796,0.0,0.0
2021-02-05 11:53:30+01:00,0.20745003197185888,-0.38597098473886077,-0.8867126444897337,-0.3844198431817946,7.560761210524672,0.0,0.0
2021-02-05 11:53:40+01:00,0.24788762340130616,-0.27198131782302004,-0.7802968792517317,-0.26391145710011954,9.477102855007173,0.0,0.0
2021-02-05 11:53:50+01:00,0.3658999047797892,-0.27198131782302004,-0.6132579583081134,-0.4114127147386886,-0.398686400333764,0.0,0.0
2021-02-05 11:54:00+01:00,1.2356170348420978,-0.5950227075805408,0.38964223215516264,-0.4161135957391333,1.39592920128734,0.0,0.0
2021-02-05 11:54:10+01:00,0.10446674105986624,-0.6245191394086005,-0.5724853930362876,-0.4161135957391333,-0.11109198504850012,0.0,0.0
2021-02-05 11:54:20+01:00,1.147661239121879,-0.5686954497418387,0.2837384776720538,-0.4161135957391333,-0.3133559559992062,0.0,0.0
2021-02-05 11:54:30+01:00,-1.045576579214402,-0.47668085555970124,0.9509259093928392,-0.4161135957391333,-0.4043927719763796,0.0,0.0
2021-02-05 11:54:40+01:00,0.3611312615936047,-0.4146359008011036,-0.7207492667520178,-0.30880805041879167,1.2513256213210013,0.0,0.0
2021-02-05 11:54:50+01:00,0.10315151732104035,-0.21424555076908433,-0.8603559053901779,-0.4161135957391333,1.2125019051093373,0.0,0.0
2021-02-05 11:55:00+01:00,0.40651255333628383,-0.5229153271480089,-0.7329810363335655,-0.3787968628127588,0.5067651465262543,0.0,0.0
2021-02-05 11:55:10+01:00,0.16871130830323772,-0.27198131782302004,-0.8923659459945145,-0.3209842215099128,-0.13045137492206052,0.0,0.0
2021-02-05 11:55:20+01:00,1.5396274181260428,-0.27198131782302004,1.0480791078096645,-0.4161135957391333,-0.2679329515336287,0.0,0.0
2021-02-05 11:55:30+01:00,0.37504903773775444,-0.679236732498849,-0.887908655799627,-0.4161135957391333,-0.32062065030923004,0.0,0.0
2021-02-05 11:55:40+01:00,0.3995992593589452,-0.4146359008011036,-0.6663002487131581,-0.3216446042923389,-0.3516294833746245,0.0,0.0
2021-02-05 11:55:50+01:00,-2.3868748687968715,-0.4126409778369133,2.8042243308394657,-0.4161135957391333,-0.37010506514356756,0.0,0.0
2021-02-05 11:56:00+01:00,-3.7640254388251417,4.7720252402526375,1.092121506791998,-0.3940834187128865,-0.32480187257356213,0.0,0.0
2021-02-05 11:56:10+01:00,0.12835697565548262,-0.43521607740278373,-0.7399849105299913,-0.35439937702379076,-0.40231729902062774,0.0,0.0
2021-02-05 11:56:20+01:00,0.17703701887599493,0.05249894172619459,-0.651435905789914,-0.2077643143589412,-0.1298180911735353,0.0,0.0
2021-02-05 11:56:30+01:00,-0.4153414929520148,-0.4381859160320346,0.031683164882042744,-0.4161135957391333,1.2125019051093375,0.0,0.0
2021-02-05 11:56:40+01:00,-1.2337933205132052,1.3727827063428744,-0.08874248004199571,-0.033187265696865066,1.9720128483204113,0.0,0.0
2021-02-05 11:56:50+01:00,0.1427716386585043,-0.21424555076908433,-0.8883093426249405,-0.2400418962238788,-0.3638245611493635,0.0,0.0
2021-02-05 11:57:00+01:00,0.023220093728372436,1.35164529036112,0.04829336310404873,1.0790303794425942,1.233299684487633,0.0,0.0
2021-02-05 11:57:10+01:00,0.06993553451701987,-0.042990647554679184,-0.8704653146854534,-0.27093337224279057,-0.36451734662200547,0.0,0.0
2021-02-05 11:57:20+01:00,0.15360004106559588,-0.6483037245636595,-0.6252339764140984,-0.126179864084182,-0.37468971610395485,0.0,0.0
2021-02-05 11:57:30+01:00,0.016189932640592604,-0.09235161065437325,-0.823347867363303,-0.4161135957391333,-0.4043927719763796,0.0,0.0
2021-02-05 11:57:40+01:00,-1.8017275081180508,3.5674326943374686,-0.8347129011654959,-0.4161135957391333,-0.392907457068392,0.0,0.0
2021-02-05 11:57:50+01:00,-1.0006173870265016,2.069440054781084,-0.8939825670877519,2.4444450394860935,1.171795705795754,0.0,0.0
2021-02-05 11:58:00+01:00,-1.1441162226740185,-0.5519600920704056,1.143564174556927,-0.4161135957391333,-0.40260373191267346,0.0,0.0
2021-02-05 11:58:10+01:00,-0.5892208698801794,-0.17017173528864826,0.08852882396035495,1.8910462066937763,-0.39653091803974105,0.0,0.0
2021-02-05 11:58:20+01:00,0.2091121856319325,-0.4189450885057655,-0.8657792533334224,-0.40644009960155275,-0.21632013739110942,0.0,0.0
2021-02-05 11:58:30+01:00,0.2440710643120396,-0.35690013374716784,-0.8456680075964459,-0.4161135957391333,-0.23657725413763245,0.0,0.0
2021-02-05 11:58:40+01:00,0.20960257289037162,-0.4323215734521261,-0.8570269922325913,-0.4109110616600831,-0.1925710671069736,0.0,0.0
2021-02-05 11:58:50+01:00,0.0712548093766635,-0.22518294099789657,-0.8074842296378115,-0.35571694343541044,-0.25122799070319535,0.0,0.0
2021-02-05 11:59:00+01:00,-1.2026982657443677,-0.21424555076908433,0.9879918778217716,1.0553471126914602,-0.3556630562066941,0.0,0.0
2021-02-05 11:59:10+01:00,2.003068548245198,1.3362599313897665,2.8397786156383797,-0.4161135957391333,-0.4043927719763796,0.0,0.0
2021-02-05 11:59:20+01:00,0.21535969217476908,-0.3731711226441861,-0.8977975893014936,-0.4161135957391333,0.029486578153435763,0.0,0.0
2021-02-05 11:59:30+01:00,0.13458301937593925,-0.03758773972247799,-0.7751453953605261,-0.4161135957391333,-0.3828341762819033,0.0,0.0
2021-02-05 11:59:40+01:00,0.2226268687079844,-0.4471705199091937,-0.8649758447611284,-0.31749733837451904,-0.384140384646787,0.0,0.0
2021-02-05 11:59:50+01:00,-1.6906929589392472,-0.612402018505457,1.9598926127769418,-0.4161135957391333,-0.3334917921708255,0.0,0.0
2021-02-05 12:00:00+01:00,-0.690480821328669,-0.3427788731519298,0.35374974634051226,-0.41515553013268547,-0.3895831081381814,0.0,0.0
2021-02-05 12:00:10+01:00,0.2170768619933812,-0.35690013374716784,-0.8838765938077497,-0.27141214652858153,-0.21575505964971256,0.0,0.0
2021-02-05 12:00:20+01:00,0.0846080446824163,-0.15650978371514862,-0.8748813578706732,-0.4161135957391333,-0.3931780848149692,0.0,0.0
2021-02-05 12:00:30+01:00,0.22965255968378226,-0.35690013374716784,-0.866076489040851,-0.4161135957391333,-0.3939155370030657,0.0,0.0
2021-02-05 12:00:40+01:00,1.5427710250319018,-0.4146359008011036,0.9517870889835265,-0.4161135957391333,-0.3224833938219666,0.0,0.0
2021-02-05 12:00:50+01:00,-0.9584780315598065,1.9891240759215403,-0.891055515746678,-0.4161135957391333,-0.38884238173836383,0.0,-26.557499999999706
2021-02-05 12:01:00+01:00,-0.15227167380304718,0.56923279192075,-0.7526379682021055,-0.4161135957391333,-0.3398853979476917,-26.557499999999706,0.0
2021-02-05 12:01:10+01:00,0.4038532452235112,-0.5460661782803534,-0.7530940760634139,-0.36384544244974903,-0.3650590063388292,0.0,0.0
2021-02-05 12:01:20+01:00,0.7904435816652009,-0.3716619831752816,-0.08273697029200942,0.043443376584004045,-0.25196730232017045,0.0,0.0
2021-02-05 12:01:30+01:00,0.36769535262263053,-0.6698332398855953,-0.8916766561258196,-0.4161135957391333,-0.398295623838557,0.0,0.0
2021-02-05 12:01:40+01:00,0.28476483217659493,-0.29874971891166296,-0.7470031663221675,-0.4161135957391333,-0.32491752096534066,0.0,-26.557499999999706
2021-02-05 12:01:50+01:00,0.46520122965789157,-0.6706721563270073,-0.7542556901546051,-0.4161135957391333,-0.38096293059798975,-26.557499999999706,0.0
2021-02-05 12:02:00+01:00,-1.5723140131556887,3.5563332713027735,-0.6531501586439932,-0.37308996122205723,-0.21525543919449308,0.0,0.0
2021-02-05 12:02:10+01:00,2.9194972879456977,-0.26603046606924047,3.0054000894701134,-0.4137078971376216,-0.32023678603876754,0.0,0.0
2021-02-05 12:02:20+01:00,-0.0007173637901306552,-0.20899684467327198,-0.7170426699091245,-0.4161135957391333,-0.4043927719763796,0.0,0.0
2021-02-05 12:02:30+01:00,-0.07479549391407629,-0.15292069224330163,-0.6517903194602408,-0.4161135957391333,-0.19388289418086022,0.0,0.0
2021-02-05 12:02:40+01:00,-1.3048223681379085,-0.6691921576743466,1.4538219647325756,-0.4161135957391333,-0.33702216043114136,0.0,0.0
2021-02-05 12:02:50+01:00,-1.3610589353334654,-0.6594651453147593,1.526552125970008,-0.4001751558171872,-0.304684266889427,0.0,0.0
2021-02-05 12:03:00+01:00,-1.4608813778531977,1.5029287409120133,0.14077815098300892,0.01368171869104472,-0.3403126623661116,0.0,0.0
2021-02-05 12:03:10+01:00,1.0393215677869836,-0.6402267584368246,0.07987565131292478,-0.18791944982263106,0.16848935622545078,0.0,0.0
2021-02-05 12:03:20+01:00,-0.16152663345427998,-0.15761726070136506,-0.5257111951147734,-0.26253546574865716,-0.15558794295097053,0.0,0.0
2021-02-05 12:03:30+01:00,0.0160601946453301,-0.6156613442707161,-0.45360682603552044,-0.4161135957391333,-0.3804406197208018,0.0,0.0
2021-02-05 12:03:40+01:00,0.10198028775183476,-0.47668085555970124,-0.6733682618613535,0.4518132508929227,-0.372078498571073,0.0,0.0
2021-02-05 12:03:50+01:00,-0.12047656074118068,-0.16192644840602693,-0.5807718609382598,0.00896539127398228,-0.30857865203804413,0.0,0.0
2021-02-05 12:04:00+01:00,0.023100380096710386,-0.5935960305331076,-0.4791541222231221,0.10529952137002649,-0.136779725524584,0.0,0.0
2021-02-05 12:04:10+01:00,-1.6168771329961844,-0.5978819559723528,1.8451570202653818,-0.03106968477435667,-0.3589621681058198,0.0,0.0
2021-02-05 12:04:20+01:00,-0.6828704072338392,1.1376480214390157,-0.702488672926342,-0.312610324822363,-0.30826939398280684,0.0,0.0
2021-02-05 12:04:30+01:00,0.5783652595290149,-0.592656401919129,-0.5389850225063447,-0.156080313523947,-0.36652424976932657,0.0,0.0
2021-02-05 12:04:40+01:00,0.2853521608969282,-0.47668085555970124,-0.8718254726365342,-0.28859528326073947,-0.40303319261302967,0.0,0.0
2021-02-05 12:04:50+01:00,-2.140946022688224,2.5818167126050247,0.3414640606012876,0.31791821815509913,-0.37074089550120926,0.0,0.0
2021-02-05 12:05:00+01:00,-1.301095161533077,-0.3938527094963435,1.2541036881663123,-0.4161135957391333,-0.4043927719763796,0.0,0.0
2021-02-05 12:05:10+01:00,0.39749322384095054,-0.41229117257045184,-0.6676253793240735,-0.11503091201281812,-0.2329369370392747,0.0,0.0
2021-02-05 12:05:20+01:00,1.190747148002126,-0.47458137312137627,0.41118651124374794,-0.39484203811982693,-0.36552676049478783,0.0,0.0
2021-02-05 12:05:30+01:00,-0.507356812881466,0.5524314422675743,-0.5376415108816854,-0.28224076318586283,-0.37611339186712883,0.0,0.0
2021-02-05 12:05:40+01:00,0.4072020137715564,-0.47668085555970124,-0.6993547119363042,-0.17162218770377466,-0.4027844872634493,0.0,0.0
2021-02-05 12:05:50+01:00,-0.7383587792890038,1.5605847958664718,-0.8821218575029526,0.030031750680898445,-0.22046788993562588,0.0,0.0
2021-02-05 12:06:00+01:00,-0.6223155573608936,1.3146990025618475,-0.8915127170540553,-0.4161135957391333,-0.4043927719763796,0.0,0.0
2021-02-05 12:06:10+01:00,-1.26077176090801,1.0199519019830257,0.1986102615055078,-0.4161135957391333,-0.39777804237829956,0.0,0.0
2021-02-05 12:06:20+01:00,1.8672368869017695,-0.31919618472555233,1.47844680757708,-0.38187102286647573,8.473945057635326,0.0,0.0
2021-02-05 12:06:30+01:00,-3.9590180109564335,2.156781783661886,3.2149864573441955,-0.4161135957391333,-0.32121492647367056,0.0,0.0
2021-02-05 12:06:40+01:00,0.2498858708236465,-0.4676182559099583,-0.8891192006757411,-0.4161135957391333,-0.4043927719763796,0.0,0.0
2021-02-05 12:06:50+01:00,-0.6418959493323826,-0.34101950161990735,0.2837384776720538,-0.4161135957391333,0.491058564262432,0.0,0.0
2021-02-05 12:07:00+01:00,0.451223239246074,-0.5921369794664754,-0.7185796992483544,-0.26187753888184395,-0.22983955969936018,0.0,-26.557499999999706
2021-02-05 12:07:10+01:00,1.0724967041898958,-0.40681362813756816,0.29166755921303095,0.08758341863519915,-0.252391804543517,-26.557499999999706,0.0
2021-02-05 12:07:20+01:00,-0.832753969030429,-0.16007011227759052,0.4261008339188218,0.5297290802769368,-0.22637326089062373,0.0,0.0
2021-02-05 12:07:30+01:00,-0.19188208240158885,0.027194929638283263,-0.6132579583081134,-0.4161135957391333,-0.247808298883526,0.0,0.0
2021-02-05 12:07:40+01:00,-0.5571810162232894,-0.511450798868582,0.2841871501000954,-0.4161135957391333,-0.38113240810839294,0.0,0.0
2021-02-05 12:07:50+01:00,1.2770427331337948,-0.3067512611319009,0.651852819669783,-0.4161135957391333,-0.2656443583853147,0.0,0.0
2021-02-05 12:08:00+01:00,2.8291790812515734,-0.5010550593627394,2.7115877763527734,-0.051039219342698505,-0.2793002196560668,0.0,0.0
2021-02-05 12:08:10+01:00,-0.8926687287207046,-0.5048824630861606,0.7544102807627091,-0.4161135957391333,-0.1800414538235456,0.0,0.0
2021-02-05 12:08:20+01:00,1.4695606177526812,-0.6711176035159466,0.6670369344092606,-0.3901291360587509,-0.36867059660842405,0.0,0.0
2021-02-05 12:08:30+01:00,1.0871966713700132,-0.5952512992284256,0.17940116437412298,-0.4161135957391333,-0.40267744883582623,0.0,0.0
2021-02-05 12:08:40+01:00,0.3858263363163022,-0.4658515046971652,-0.7219630252475947,-0.4161135957391333,-0.377060932570268,0.0,0.0
2021-02-05 12:08:50+01:00,1.8046055325318127,0.09560131093629931,1.6827229639633539,0.30945419582749323,-0.3940885851558808,0.0,0.0
2021-02-05 12:09:00+01:00,1.1993007478690265,-0.25580085860874235,0.5777947478738032,1.077153025844638,-0.38010639411692587,0.0,0.0
2021-02-05 12:09:10+01:00,-0.5432375611581711,-0.3509465631636306,0.15110418491757363,-0.4046394287371404,-0.08397519263444099,0.0,0.0
2021-02-05 12:09:20+01:00,1.451094807745014,-0.18325414048116662,0.9854252633708944,-0.4161135957391333,7.997116349784038,0.0,0.0
2021-02-05 12:09:30+01:00,0.8506069680935469,-0.21424555076908433,0.11358680117893577,-0.4161135957391333,-0.4025351621042427,0.0,0.0
2021-02-05 12:09:40+01:00,-0.06814461672149566,0.6893196917546766,-0.5487569721052526,-0.38963892237655257,-0.3698577206803404,0.0,0.0
2021-02-05 12:09:50+01:00,0.08885203760771902,-0.6589659251318682,-0.5260577063206312,-0.4161135957391333,-0.4043927719763796,0.0,0.0
2021-02-05 12:10:00+01:00,-0.39503236274231557,-0.66149975374574,0.1606394312420946,-0.3736767634801349,-0.2685385863831758,0.0,0.0
2021-02-05 12:10:10+01:00,-0.38714493787674403,-0.6763006482985003,0.1599275607854326,0.6856691224787216,-0.19246123953603256,0.0,0.0
2021-02-05 12:10:20+01:00,0.01616503670936211,0.5374268979182961,-0.5366875403456332,-0.01054252810317945,0.7737184999497988,0.0,0.0
2021-02-05 12:10:30+01:00,0.005990789494579665,-0.2536664827722925,-0.6949922735546262,-0.4161135957391333,-0.4043927719763796,0.0,0.0
2021-02-05 12:10:40+01:00,0.16567409372871797,-0.41723226249940076,-0.8055049662292562,-0.32434200750223574,-0.24743265382767204,0.0,0.0
2021-02-05 12:10:50+01:00,0.47968945441585176,-0.6461236429945272,-0.7164125484458326,-0.4161135957391333,-0.4043927719763796,0.0,0.0
2021-02-05 12:11:00+01:00,-0.4044839732777144,-0.6272725791342271,0.14984661444731368,-0.4161135957391333,-0.22279803727714104,0.0,0.0
2021-02-05 12:11:10+01:00,0.39620713831889154,2.1446625212866555,1.1362557515375018,-0.39795093645359414,-0.09233647838858666,0.0,0.0
2021-02-05 12:11:20+01:00,0.4167500053681676,-0.10400037901517534,-0.42265597883841205,-0.28288822009664233,-0.2871031108334809,0.0,0.0
2021-02-05 12:11:30+01:00,2.4320616284741026,-0.275481553949371,2.3087914526439417,-0.3149704920409994,-0.13122245851944042,0.0,0.0
2021-02-05 12:11:40+01:00,0.08282031151438358,-0.442906481574368,-0.6700997365795311,-0.4161135957391333,-0.38663681613171813,0.0,0.0
2021-02-05 12:11:50+01:00,-1.671855129295688,-0.30649944920824823,1.4524646497412732,0.6700114324889401,-0.4012860570697047,0.0,0.0
2021-02-05 12:12:00+01:00,0.4109024651718669,-0.566880452422613,-0.7578152351809502,-0.001825287950016127,-0.39387448135239,0.0,0.0
2021-02-05 12:12:10+01:00,1.4221492509713602,0.023216310692241636,1.0902625409839786,-0.4161135957391333,-0.36217484351033297,0.0,0.0
2021-02-05 12:12:20+01:00,-1.8570928460365783,-0.4031344216307622,2.0476379235367683,-0.4161135957391333,-0.23494801716451164,0.0,0.0
2021-02-05 12:12:30+01:00,-2.6588138876696936,-0.35222772508326355,3.1464734284790072,-0.052460257356849394,-0.35688579238387325,0.0,0.0
2021-02-05 12:12:40+01:00,-3.388193216404074,-0.4468681734432505,4.245698114969958,-0.4161135957391333,-0.4043927719763796,0.0,0.0
2021-02-05 12:12:50+01:00,0.16929814470895327,-0.5477763484414336,-0.7184453276996059,-0.4161135957391333,-0.4043927719763796,0.0,0.0
2021-02-05 12:13:00+01:00,-0.1270632589622035,3.2414856628749553,1.1701678656711407,-0.4161135957391333,-0.4043927719763796,0.0,0.0
2021-02-05 12:13:10+01:00,1.5271622948225374,-0.5732866661711469,0.8176559389863999,-0.12022675695329132,-0.35597998103752515,0.0,0.0
2021-02-05 12:13:20+01:00,-1.0168405992023264,0.7043478290378552,2.8302928004893557,-0.3869228412821263,-0.3985369992656013,0.0,0.0
2021-02-05 12:13:30+01:00,-0.1107225040526852,3.333958679047501,1.258600920648779,-0.4161135957391333,-0.4043927719763796,0.0,0.0
2021-02-05 12:13:40+01:00,0.26267793555117847,-0.1347830325155443,-0.66247372863601,-0.2927738944173023,-0.2017066028772418,0.0,0.0
2021-02-05 12:13:50+01:00,3.16139563283931,-0.4813405728522659,3.195741517421341,1.3054874497831854,-0.17225605205688868,0.0,26.557499999999706
2021-02-05 12:14:00+01:00,0.20743639119077328,-0.43436892049280135,-0.8525150779200299,4.594864526688896,0.9657718214370753,26.557499999999706,0.0
2021-02-05 12:14:10+01:00,0.23105803935674055,-0.4189450885057655,-0.8968422213784314,-0.4161135957391333,-0.3616338036031354,0.0,0.0
2021-02-05 12:14:20+01:00,0.030621907834775124,-0.4143956307821556,-0.6163503461079614,-0.38939074564093734,-0.40252167450781134,0.0,0.0
2021-02-05 12:14:30+01:00,-0.23335548021862157,0.15802920079423521,-0.6469491666831096,-0.4161135957391333,-0.4043927719763796,0.0,0.0
2021-02-05 12:14:40+01:00,-3.408016686099405,-0.28910858588121524,4.162348346208214,-0.4161135957391333,-0.35022269068670375,0.0,0.0
2021-02-05 12:14:50+01:00,-0.3003038367242223,-0.09184047590864478,-0.3757319120867491,-0.3455351050806471,0.8908050521730109,0.0,-26.557499999999706
2021-02-05 12:15:00+01:00,1.3401337469976955,-0.5146182460336342,0.594360055501445,-0.4161135957391333,-0.20346412696886704,-26.557499999999706,0.0
2021-02-05 12:15:10+01:00,-0.4600837943638295,-0.5866593038159393,0.19986385479735533,-0.3229299206542002,-0.08279201648036122,0.0,0.0
2021-02-05 12:15:20+01:00,0.17686617522884138,-0.49193821433549617,1.1135680874009988,-0.4161135957391333,1.723520551561961,0.0,0.0
2021-02-05 12:15:30+01:00,-1.1949830305350646,-0.6808662090524122,1.306595456275266,-0.4161135957391333,-0.4043927719763796,0.0,0.0
2021-02-05 12:15:40+01:00,0.48111030844583696,-0.21424555076908433,-0.4094123527979166,1.5127796533801168,-0.24299602957497193,0.0,0.0
2021-02-05 12:15:50+01:00,0.3653550722382726,-0.3927015580267038,-0.6992808617008064,-0.37465777250875554,-0.1806093207082604,0.0,0.0
2021-02-05 12:16:00+01:00,-1.3933349481225996,-0.5455678713723231,1.4918033810365725,-0.4161135957391333,-0.2998564080213614,0.0,0.0
2021-02-05 12:16:10+01:00,0.013691281452296906,-0.6016013255782039,-0.46018285887816157,-0.4161135957391333,-0.39098161424088207,0.0,0.0
2021-02-05 12:16:20+01:00,0.5161040969459962,-0.6193354385377848,-0.6459522959951977,-0.15522374832460423,0.3257286986107687,0.0,0.0
2021-02-05 12:16:30+01:00,-0.685978331804687,-0.5581834146550311,0.49949382733668457,-0.40582728402678614,1.57448891688471,0.0,0.0
2021-02-05 12:16:40+01:00,0.12349000833656251,-0.21424555076908433,-0.8891437531732286,-0.4161135957391333,-0.4043927719763796,0.0,0.0
2021-02-05 12:16:50+01:00,-1.257305085627698,-0.35690013374716784,1.1660259735082117,-0.2071849121623812,-0.26034780217272885,0.0,0.0
2021-02-05 12:17:00+01:00,0.24094861907866164,-0.21424555076908433,-0.7493460357612203,-0.33823699637556687,-0.29625581263557077,0.0,0.0
2021-02-05 12:17:10+01:00,-1.096341339158742,-0.32771351729382564,0.917580600635222,0.012702196137663392,2.0329930744040157,0.0,0.0
2021-02-05 12:17:20+01:00,0.06052601950013711,-0.4189450885057655,-0.6554649320789767,-0.4161135957391333,-0.4043927719763796,0.0,0.0
2021-02-05 12:17:30+01:00,-0.1874914216193,-0.12653704755501227,-0.510908292740797,-0.3018553856334674,-0.3316325115075223,0.0,0.0
2021-02-05 12:17:40+01:00,-0.29311348483963584,0.16255381114318762,-0.5655607362275882,-0.3852019553604528,-0.29525238127309367,0.0,0.0
2021-02-05 12:17:50+01:00,0.06168203969008657,-0.2891918251111887,-0.7487319861018393,-0.3029271342810474,-0.18751146680931471,0.0,0.0
2021-02-05 12:18:00+01:00,-0.6149823609136931,1.586013107812144,-0.689533056873733,-0.346533628665349,1.4726588303954644,0.0,-26.557499999999706
